;FLAVOR:Marlin
;TIME:2738
;Filament used: 1.75118m
;Layer height: 0.2
;MINX:103.25
;MINY:106.5
;MINZ:0.2
;MAXX:196.75
;MAXY:207.101
;MAXZ:10.4
;Generated with Cura_SteamEngine 4.13.0
M82 ;absolute extrusion mode
; START OF PREHEAT AND HOMEING SEQUENCE
M107 ;Turn off part cooling blowers
M140 S50 ;Start heating bed
M104 S200 ;Start heating extruder

; Home and move to center of the bed
G1 Z2.0 F3000; Move Z Axis up to prevent scratching bed
G28 ;Home
M420 S1 Z2 ; Use ABL to center on the bed
G1 Z62.0 F1000; Move Z Axis up to manual addjust steppers
M190 S50 ;Wait for bed to reach temp before proceeding
M109 S200 ;Wait for extruder to reach temp before proceeding
G28 ;Home and reset leveling
; END OF PREHEAT AND HOMEING SEQUENCE

M201 X500.00 Y500.00 Z100.00 E5000.00 ;Setup machine max acceleration
M203 X500.00 Y500.00 Z10.00 E50.00 ;Setup machine max feedrate
M204 P500.00 R1000.00 T500.00 ;Setup Print/Retract/Travel acceleration
M205 X8.00 Y8.00 Z0.40 E5.00 ;Setup Jerk
M220 S100 ;Reset Feedrate
M221 S100 ;Reset Flowrate
M420 S1 Z2 ;Enable ABL using saved Mesh and Fade Height

G92 E0 ;Reset Extruder
G1 Z2.0 F3000 ;Move Z Axis up
G1 X10.1 Y20 Z0.28 F5000.0 ;Move to start position
G1 X10.1 Y200.0 Z0.28 F1500.0 E15 ;Draw the first line
G1 X10.4 Y200.0 Z0.28 F5000.0 ;Move to side a little
G1 X10.4 Y20 Z0.28 F1500.0 E30 ;Draw the second line
G92 E0 ;Reset Extruder
G1 Z2.0 F3000 ;Move Z Axis up
G92 E0
G92 E0
G1 F2700 E-5
;LAYER_COUNT:52
;LAYER:0
M107
G0 F6000 X112.893 Y110.203 Z0.2
;TYPE:SKIRT
G1 F2700 E0
G1 F1200 X113.503 Y109.611 E0.02827
G1 X114.203 Y108.987 E0.05946
G1 X114.955 Y108.426 E0.09067
G1 X115.751 Y107.931 E0.12184
G1 X116.587 Y107.505 E0.15305
G1 X117.456 Y107.152 E0.18425
G1 X118.351 Y106.874 E0.21542
G1 X119.268 Y106.674 E0.24663
G1 X120.197 Y106.552 E0.2778
G1 X120.789 Y106.516 E0.29753
G1 X121.173 Y106.506 E0.3103
G1 X121.716 Y106.5 E0.32836
G1 X178.139 Y106.5 E2.205
G1 X178.998 Y106.511 E2.23357
G1 X179.934 Y106.564 E2.26475
G1 X180.862 Y106.697 E2.29593
G1 X181.776 Y106.909 E2.32714
G1 X182.669 Y107.197 E2.35835
G1 X183.533 Y107.561 E2.38953
G1 X184.364 Y107.997 E2.42074
G1 X185.154 Y108.502 E2.45193
G1 X185.898 Y109.072 E2.4831
G1 X186.322 Y109.445 E2.50189
G1 X186.474 Y109.586 E2.50878
G1 X186.675 Y109.777 E2.518
G1 X186.935 Y110.032 E2.53012
G1 X193.047 Y116.143 E2.81758
G1 X193.621 Y116.734 E2.84498
G1 X194.245 Y117.434 E2.87617
G1 X194.807 Y118.185 E2.90737
G1 X195.303 Y118.981 E2.93857
G1 X195.729 Y119.816 E2.96974
G1 X196.083 Y120.685 E3.00095
G1 X196.361 Y121.581 E3.03216
G1 X196.562 Y122.497 E3.06335
G1 X196.661 Y123.187 E3.08653
G1 X196.679 Y123.35 E3.09199
G1 X196.744 Y124.423 E3.12774
G1 X196.75 Y124.966 E3.1458
G1 X196.749 Y181.546 E5.02766
G1 X196.739 Y182.248 E5.05101
G1 X196.686 Y183.184 E5.08219
G1 X196.553 Y184.112 E5.11337
G1 X196.341 Y185.026 E5.14458
G1 X196.053 Y185.919 E5.17579
G1 X195.689 Y186.783 E5.20697
G1 X195.253 Y187.614 E5.23818
G1 X194.748 Y188.404 E5.26937
G1 X194.178 Y189.148 E5.30054
G1 X193.805 Y189.572 E5.31932
G1 X193.664 Y189.724 E5.32622
G1 X193.462 Y189.936 E5.33596
G1 X193.197 Y190.206 E5.34854
G1 X187.115 Y196.289 E5.63464
G1 X186.488 Y196.897 E5.66369
G1 X185.787 Y197.52 E5.69488
G1 X185.035 Y198.081 E5.72609
G1 X184.239 Y198.576 E5.75727
G1 X183.403 Y199.001 E5.78846
G1 X182.534 Y199.354 E5.81965
G1 X181.672 Y199.622 E5.84968
G1 X181.112 Y199.77 E5.86894
G1 X179.441 Y200.192 E5.92627
G1 X177.062 Y200.865 E6.0085
G1 X174.59 Y201.64 E6.09466
G1 X172.262 Y202.444 E6.17658
G1 X169.897 Y203.336 E6.26065
G1 X167.603 Y204.276 E6.3431
G1 X164.244 Y205.786 E6.46559
G1 X163.71 Y206.038 E6.48523
G1 X162.846 Y206.401 E6.5164
G1 X161.953 Y206.689 E6.54761
G1 X161.039 Y206.9 E6.57881
G1 X160.111 Y207.033 E6.60999
G1 X159.202 Y207.086 E6.64028
G1 X158.407 Y207.099 E6.66672
G1 X156.032 Y207.101 E6.74571
G1 X155.231 Y207.091 E6.77236
G1 X154.92 Y207.082 E6.78271
G1 X153.872 Y207.038 E6.81759
G1 X151.235 Y206.964 E6.90534
G1 X148.73 Y206.964 E6.98865
G1 X146.311 Y207.031 E7.06914
G1 X145.04 Y207.083 E7.11145
G1 X144.727 Y207.091 E7.12186
G1 X143.96 Y207.1 E7.14737
G1 X141.531 Y207.099 E7.22816
G1 X140.825 Y207.089 E7.25165
G1 X139.889 Y207.036 E7.28283
G1 X138.96 Y206.903 E7.31404
G1 X138.047 Y206.691 E7.34522
G1 X137.154 Y206.403 E7.37642
G1 X136.303 Y206.046 E7.40712
G1 X135.361 Y205.603 E7.44174
G1 X132.991 Y204.533 E7.52823
G1 X130.658 Y203.556 E7.61235
G1 X128.341 Y202.665 E7.69492
G1 X125.986 Y201.834 E7.77798
G1 X123.539 Y201.047 E7.86347
G1 X121.163 Y200.356 E7.94577
G1 X118.644 Y199.7 E8.03235
G1 X118.565 Y199.681 E8.03505
G1 X117.664 Y199.422 E8.06623
G1 X116.788 Y199.086 E8.09744
G1 X115.944 Y198.677 E8.12863
G1 X115.138 Y198.198 E8.15982
G1 X114.376 Y197.652 E8.191
G1 X113.595 Y196.979 E8.22529
G1 X113.306 Y196.704 E8.23856
G1 X113.102 Y196.504 E8.24806
G1 X106.832 Y190.232 E8.54303
G1 X106.361 Y189.746 E8.56554
G1 X105.737 Y189.046 E8.59673
G1 X105.176 Y188.294 E8.62793
G1 X104.681 Y187.498 E8.65911
G1 X104.255 Y186.662 E8.69031
G1 X103.902 Y185.793 E8.72151
G1 X103.624 Y184.898 E8.75268
G1 X103.424 Y183.981 E8.7839
G1 X103.302 Y183.052 E8.81506
G1 X103.266 Y182.462 E8.83472
G1 X103.256 Y182.077 E8.84753
G1 X103.25 Y181.534 E8.86559
G1 X103.251 Y124.954 E10.74745
G1 X103.261 Y124.252 E10.7708
G1 X103.314 Y123.316 E10.80198
G1 X103.447 Y122.388 E10.83316
G1 X103.659 Y121.474 E10.86437
G1 X103.947 Y120.581 E10.89558
G1 X104.311 Y119.717 E10.92676
G1 X104.747 Y118.886 E10.95797
G1 X105.252 Y118.096 E10.98916
G1 X105.822 Y117.352 E11.02033
G1 X106.195 Y116.928 E11.03912
G1 X106.336 Y116.776 E11.04601
G1 X106.538 Y116.564 E11.05575
G1 X106.803 Y116.294 E11.06833
G1 X112.893 Y110.203 E11.35481
G0 F6000 X113.295 Y110.369
G1 F1200 X113.781 Y109.898 E11.37732
G1 X114.469 Y109.287 E11.40793
G1 X115.208 Y108.737 E11.43857
G1 X115.992 Y108.254 E11.46919
G1 X116.814 Y107.841 E11.49979
G1 X117.67 Y107.5 E11.53044
G1 X118.552 Y107.235 E11.56107
G1 X119.453 Y107.048 E11.59167
G1 X120.802 Y106.916 E11.63676
G1 X121.177 Y106.906 E11.64923
G1 X121.716 Y106.9 E11.66716
G1 X178.139 Y106.9 E13.5438
G1 X178.992 Y106.911 E13.57217
G1 X179.911 Y106.964 E13.60279
G1 X180.822 Y107.097 E13.63341
G1 X181.718 Y107.308 E13.66402
G1 X182.593 Y107.596 E13.69466
G1 X183.439 Y107.959 E13.72528
G1 X184.25 Y108.394 E13.75589
G1 X185.021 Y108.898 E13.78653
G1 X186.05 Y109.739 E13.83073
G1 X186.202 Y109.88 E13.83762
G1 X186.395 Y110.064 E13.84649
G1 X186.652 Y110.315 E13.85844
G1 X192.876 Y116.54 E14.15122
G1 X193.334 Y117.012 E14.1731
G1 X193.946 Y117.7 E14.20372
G1 X194.496 Y118.439 E14.23436
G1 X194.98 Y119.222 E14.26498
G1 X195.394 Y120.044 E14.29559
G1 X195.734 Y120.9 E14.32623
G1 X196 Y121.781 E14.35683
G1 X196.188 Y122.682 E14.38745
G1 X196.263 Y123.231 E14.40588
G1 X196.281 Y123.394 E14.41133
G1 X196.344 Y124.427 E14.44575
G1 X196.35 Y124.966 E14.46368
G1 X196.349 Y181.54 E16.34534
G1 X196.339 Y182.242 E16.36869
G1 X196.286 Y183.161 E16.39931
G1 X196.153 Y184.072 E16.42993
G1 X195.942 Y184.968 E16.46055
G1 X195.654 Y185.843 E16.49118
G1 X195.291 Y186.689 E16.5218
G1 X194.856 Y187.5 E16.55241
G1 X194.352 Y188.271 E16.58305
G1 X193.511 Y189.3 E16.62725
G1 X193.37 Y189.452 E16.63415
G1 X193.176 Y189.656 E16.64351
G1 X192.914 Y189.923 E16.65595
G1 X186.708 Y196.128 E16.94784
G1 X186.21 Y196.61 E16.97089
G1 X185.521 Y197.221 E17.00152
G1 X184.782 Y197.77 E17.03214
G1 X183.998 Y198.252 E17.06275
G1 X183.175 Y198.665 E17.09337
G1 X182.32 Y199.005 E17.12398
G1 X181.569 Y199.235 E17.1501
G1 X181.014 Y199.382 E17.1692
G1 X179.339 Y199.805 E17.22666
G1 X176.939 Y200.484 E17.30961
G1 X174.476 Y201.256 E17.39546
G1 X172.139 Y202.064 E17.47771
G1 X169.753 Y202.963 E17.56251
G1 X167.431 Y203.914 E17.64597
G1 X164.088 Y205.418 E17.76789
G1 X163.54 Y205.676 E17.78804
G1 X162.691 Y206.032 E17.81866
G1 X161.814 Y206.313 E17.84929
G1 X160.916 Y206.516 E17.87991
G1 X160.004 Y206.641 E17.91052
G1 X159.195 Y206.686 E17.93747
G1 X158.4 Y206.699 E17.96392
G1 X156.032 Y206.701 E18.04268
G1 X155.236 Y206.691 E18.06916
G1 X154.937 Y206.683 E18.0791
G1 X153.83 Y206.636 E18.11596
G1 X151.246 Y206.564 E18.20193
G1 X148.719 Y206.564 E18.28598
G1 X146.282 Y206.631 E18.36707
G1 X145.023 Y206.683 E18.40898
G1 X144.722 Y206.691 E18.41899
G1 X143.96 Y206.7 E18.44434
G1 X141.537 Y206.699 E18.52493
G1 X140.831 Y206.689 E18.54841
G1 X139.912 Y206.636 E18.57903
G1 X139.001 Y206.503 E18.60965
G1 X138.105 Y206.292 E18.64027
G1 X137.23 Y206.004 E18.67091
G1 X136.473 Y205.684 E18.69824
G1 X135.49 Y205.222 E18.73437
G1 X133.175 Y204.176 E18.81886
G1 X130.819 Y203.19 E18.90381
G1 X128.469 Y202.287 E18.98754
G1 X126.094 Y201.448 E19.07132
G1 X123.669 Y200.668 E19.15604
G1 X121.271 Y199.971 E19.2391
G1 X118.77 Y199.32 E19.32505
G1 X118.66 Y199.293 E19.32882
G1 X117.775 Y199.037 E19.35946
G1 X116.916 Y198.706 E19.39008
G1 X116.089 Y198.301 E19.42071
G1 X115.3 Y197.826 E19.45134
G1 X114.556 Y197.285 E19.48194
G1 X113.87 Y196.689 E19.51216
G1 X113.586 Y196.418 E19.52522
G1 X113.382 Y196.218 E19.53472
G1 X107.119 Y189.954 E19.82934
G1 X106.648 Y189.468 E19.85184
G1 X106.037 Y188.78 E19.88245
G1 X105.487 Y188.041 E19.91309
G1 X105.004 Y187.257 E19.94372
G1 X104.591 Y186.435 E19.97431
G1 X104.25 Y185.579 E20.00496
G1 X103.985 Y184.697 E20.03559
G1 X103.798 Y183.796 E20.0662
G1 X103.666 Y182.449 E20.11121
G1 X103.656 Y182.073 E20.12372
G1 X103.65 Y181.534 E20.14165
G1 X103.651 Y124.96 E22.02331
G1 X103.661 Y124.258 E22.04666
G1 X103.714 Y123.339 E22.07728
G1 X103.847 Y122.428 E22.1079
G1 X104.058 Y121.532 E22.13851
G1 X104.346 Y120.657 E22.16915
G1 X104.709 Y119.811 E22.19977
G1 X105.144 Y119 E22.23038
G1 X105.648 Y118.229 E22.26102
G1 X106.489 Y117.2 E22.30522
G1 X106.63 Y117.048 E22.31211
G1 X106.824 Y116.844 E22.32148
G1 X107.086 Y116.577 E22.33392
G1 X113.295 Y110.369 E22.62595
G0 F6000 X113.573 Y110.656
G1 F1200 X114.059 Y110.185 E22.64846
G1 X114.735 Y109.586 E22.6785
G1 X115.461 Y109.049 E22.70853
G1 X116.232 Y108.578 E22.73858
G1 X117.041 Y108.178 E22.7686
G1 X117.883 Y107.85 E22.79866
G1 X118.75 Y107.598 E22.82869
G1 X119.636 Y107.424 E22.85872
G1 X120.816 Y107.316 E22.89813
G1 X121.182 Y107.306 E22.91031
G1 X121.716 Y107.3 E22.92807
G1 X178.139 Y107.3 E24.8047
G1 X178.986 Y107.311 E24.83288
G1 X179.888 Y107.364 E24.86293
G1 X180.781 Y107.496 E24.89295
G1 X181.659 Y107.707 E24.92299
G1 X182.515 Y107.995 E24.95303
G1 X183.343 Y108.357 E24.98308
G1 X184.135 Y108.791 E25.01312
G1 X184.885 Y109.294 E25.04316
G1 X185.778 Y110.032 E25.08169
G1 X185.93 Y110.173 E25.08858
G1 X186.116 Y110.35 E25.09712
G1 X186.369 Y110.598 E25.10891
G1 X192.589 Y116.819 E25.4015
G1 X193.047 Y117.291 E25.42338
G1 X193.647 Y117.966 E25.45341
G1 X194.184 Y118.692 E25.48345
G1 X194.656 Y119.462 E25.51349
G1 X195.057 Y120.271 E25.54352
G1 X195.385 Y121.113 E25.57357
G1 X195.637 Y121.98 E25.6036
G1 X195.865 Y123.274 E25.6473
G1 X195.883 Y123.437 E25.65276
G1 X195.944 Y124.432 E25.68591
G1 X195.95 Y124.966 E25.70368
G1 X195.949 Y181.534 E27.58514
G1 X195.939 Y182.236 E27.60849
G1 X195.886 Y183.138 E27.63854
G1 X195.754 Y184.031 E27.66856
G1 X195.543 Y184.909 E27.6986
G1 X195.255 Y185.765 E27.72864
G1 X194.893 Y186.593 E27.75869
G1 X194.459 Y187.385 E27.78873
G1 X193.956 Y188.135 E27.81877
G1 X193.218 Y189.028 E27.8573
G1 X193.077 Y189.18 E27.86419
G1 X192.89 Y189.376 E27.8732
G1 X192.631 Y189.64 E27.8855
G1 X186.43 Y195.84 E28.17716
G1 X185.932 Y196.322 E28.20021
G1 X185.256 Y196.921 E28.23025
G1 X184.529 Y197.458 E28.26031
G1 X183.758 Y197.928 E28.29034
G1 X182.949 Y198.328 E28.32036
G1 X182.107 Y198.655 E28.3504
G1 X181.466 Y198.849 E28.37268
G1 X180.916 Y198.994 E28.3916
G1 X179.27 Y199.41 E28.44806
G1 X176.792 Y200.111 E28.53372
G1 X174.363 Y200.872 E28.61838
G1 X171.972 Y201.698 E28.70251
G1 X169.627 Y202.582 E28.78587
G1 X167.257 Y203.553 E28.87105
G1 X163.931 Y205.049 E28.99235
G1 X163.369 Y205.314 E29.01302
G1 X162.536 Y205.663 E29.04306
G1 X161.675 Y205.936 E29.0731
G1 X160.794 Y206.132 E29.10312
G1 X159.898 Y206.249 E29.13317
G1 X159.189 Y206.286 E29.15678
G1 X158.232 Y206.3 E29.18862
G1 X155.884 Y206.3 E29.26671
G1 X155.242 Y206.291 E29.28807
G1 X154.954 Y206.283 E29.29765
G1 X153.859 Y206.237 E29.3341
G1 X151.257 Y206.164 E29.42068
G1 X148.708 Y206.164 E29.50546
G1 X146.256 Y206.232 E29.58704
G1 X145.007 Y206.283 E29.62862
G1 X144.717 Y206.291 E29.63827
G1 X143.96 Y206.3 E29.66345
G1 X141.543 Y206.299 E29.74384
G1 X140.837 Y206.289 E29.76732
G1 X139.935 Y206.236 E29.79738
G1 X139.042 Y206.104 E29.8274
G1 X138.163 Y205.893 E29.85747
G1 X137.307 Y205.605 E29.8875
G1 X136.644 Y205.322 E29.91148
G1 X135.725 Y204.89 E29.94526
G1 X133.301 Y203.795 E30.03372
G1 X130.951 Y202.811 E30.11846
G1 X128.641 Y201.924 E30.20076
G1 X126.213 Y201.066 E30.28641
G1 X123.788 Y200.286 E30.37113
G1 X121.378 Y199.586 E30.4546
G1 X118.854 Y198.928 E30.54136
G1 X118.754 Y198.904 E30.54478
G1 X117.886 Y198.652 E30.57484
G1 X117.045 Y198.325 E30.60485
G1 X116.235 Y197.925 E30.6349
G1 X115.464 Y197.455 E30.66493
G1 X114.738 Y196.918 E30.69497
G1 X114.145 Y196.398 E30.7212
G1 X113.866 Y196.133 E30.734
G1 X113.591 Y195.861 E30.74686
G1 X107.406 Y189.676 E31.03779
G1 X106.935 Y189.19 E31.0603
G1 X106.336 Y188.514 E31.09034
G1 X105.799 Y187.788 E31.12037
G1 X105.328 Y187.017 E31.15042
G1 X104.928 Y186.208 E31.18044
G1 X104.6 Y185.366 E31.21049
G1 X104.348 Y184.499 E31.24052
G1 X104.174 Y183.613 E31.27055
G1 X104.066 Y182.435 E31.3099
G1 X104.056 Y182.068 E31.32211
G1 X104.05 Y181.534 E31.33987
G1 X104.051 Y124.966 E33.22133
G1 X104.061 Y124.264 E33.24468
G1 X104.114 Y123.362 E33.27473
G1 X104.246 Y122.469 E33.30476
G1 X104.457 Y121.591 E33.33479
G1 X104.745 Y120.735 E33.36483
G1 X105.107 Y119.907 E33.39489
G1 X105.541 Y119.115 E33.42492
G1 X106.044 Y118.365 E33.45496
G1 X106.782 Y117.472 E33.49349
G1 X106.923 Y117.32 E33.50039
G1 X107.11 Y117.124 E33.5094
G1 X107.369 Y116.86 E33.5217
G1 X113.573 Y110.656 E33.81352
G1 F2700 E28.81352
;MESH:otto-diy_ninja_band.stl
G0 F6000 X125.161 Y122.245
G0 X123.849 Y120.933
G0 X116.814 Y129.035
G0 X116.814 Y177.465
G0 X125.551 Y187
;TYPE:WALL-INNER
G1 F2700 E33.81352
G1 F1200 X174.449 Y187 E35.43987
G1 X183.75 Y177.699 E35.87736
G1 X183.75 Y128.801 E37.50371
G1 X174.449 Y119.5 E37.9412
G1 X125.551 Y119.5 E39.56756
G1 X116.25 Y128.801 E40.00505
G1 X116.25 Y177.699 E41.6314
G1 X125.551 Y187 E42.06889
G0 F6000 X125.717 Y186.6
G1 F1200 X174.283 Y186.6 E43.68421
G1 X183.35 Y177.533 E44.11069
G1 X183.35 Y128.967 E45.726
G1 X174.283 Y119.9 E46.15249
G1 X125.717 Y119.9 E47.7678
G1 X116.65 Y128.967 E48.19428
G1 X116.65 Y177.533 E49.80959
G1 X125.717 Y186.6 E50.23608
G0 F6000 X125.883 Y186.2
;TYPE:WALL-OUTER
G1 F1200 X174.117 Y186.2 E51.84035
G1 X182.95 Y177.367 E52.25582
G1 X182.95 Y129.133 E53.86009
G1 X174.117 Y120.3 E54.27557
G1 X125.883 Y120.3 E55.87984
G1 X117.05 Y129.133 E56.29532
G1 X117.05 Y177.367 E57.89959
G1 X125.883 Y186.2 E58.31506
G0 F6000 X125.715 Y186.606
G1 F2700 E53.31506
G0 F6000 X142.9 Y187.19
G0 X142.9 Y187.79
G0 X142.9 Y188.56
G0 X146.212 Y188.566
G0 X146.455 Y189.032
G0 X142.9 Y195.1
;TYPE:WALL-INNER
G1 F2700 E58.31506
G1 F1200 X147.117 Y189.075 E58.55966
G1 X146.557 Y188 E58.59998
G1 X121.568 Y188 E59.43112
G1 X115.25 Y181.682 E59.7283
G1 X115.25 Y124.818 E61.6196
G1 X121.568 Y118.5 E61.91678
G1 X178.432 Y118.5 E63.80808
G1 X184.75 Y124.818 E64.10526
G1 X184.75 Y181.682 E65.99657
G1 X178.432 Y188 E66.29375
G1 X153.443 Y188 E67.12488
G1 X152.883 Y189.075 E67.1652
G1 X157.1 Y195.1 E67.4098
G1 X155.879 Y195.101 E67.45041
G1 X151.958 Y189.5 E67.67781
G1 X148.042 Y189.5 E67.80806
G1 X144.122 Y195.1 E68.03541
G1 X142.9 Y195.1 E68.07606
G0 F6000 X142.132 Y195.5
G1 F1200 X146.65 Y189.045 E68.33812
G1 X146.314 Y188.4 E68.3623
G1 X121.402 Y188.4 E69.19088
G1 X114.85 Y181.848 E69.49907
G1 X114.85 Y124.652 E71.40141
G1 X121.402 Y118.1 E71.7096
G1 X178.598 Y118.1 E73.61195
G1 X185.15 Y124.652 E73.92013
G1 X185.15 Y181.848 E75.82248
G1 X178.598 Y188.4 E76.13067
G1 X153.686 Y188.4 E76.95924
G1 X153.35 Y189.045 E76.98343
G1 X157.868 Y195.5 E77.24549
G1 X155.671 Y195.501 E77.31856
G1 X151.75 Y189.9 E77.54596
