;FLAVOR:Marlin
;TIME:5073
;Filament used: 2.96105m
;Layer height: 0.2
;MINX:112.371
;MINY:102.35
;MINZ:0.2
;MAXX:187.629
;MAXY:212.65
;MAXZ:10.6
;Generated with Cura_SteamEngine 4.13.0
M82 ;absolute extrusion mode
; START OF PREHEAT AND HOMEING SEQUENCE
M107 ;Turn off part cooling blowers
M140 S50 ;Start heating bed
M104 S200 ;Start heating extruder

; Home and move to center of the bed
G1 Z2.0 F3000; Move Z Axis up to prevent scratching bed
G28 ;Home
M420 S1 Z2 ; Use ABL to center on the bed
G1 Z62.0 F1000; Move Z Axis up to manual addjust steppers
M190 S50 ;Wait for bed to reach temp before proceeding
M109 S200 ;Wait for extruder to reach temp before proceeding
G28 ;Home and reset leveling
; END OF PREHEAT AND HOMEING SEQUENCE

M201 X500.00 Y500.00 Z100.00 E5000.00 ;Setup machine max acceleration
M203 X500.00 Y500.00 Z10.00 E50.00 ;Setup machine max feedrate
M204 P500.00 R1000.00 T500.00 ;Setup Print/Retract/Travel acceleration
M205 X8.00 Y8.00 Z0.40 E5.00 ;Setup Jerk
M220 S100 ;Reset Feedrate
M221 S100 ;Reset Flowrate
M420 S1 Z2 ;Enable ABL using saved Mesh and Fade Height

G92 E0 ;Reset Extruder
G1 Z2.0 F3000 ;Move Z Axis up
G1 X10.1 Y20 Z0.28 F5000.0 ;Move to start position
G1 X10.1 Y200.0 Z0.28 F1500.0 E15 ;Draw the first line
G1 X10.4 Y200.0 Z0.28 F5000.0 ;Move to side a little
G1 X10.4 Y20 Z0.28 F1500.0 E30 ;Draw the second line
G92 E0 ;Reset Extruder
G1 Z2.0 F3000 ;Move Z Axis up
G92 E0
G92 E0
G1 F2700 E-5
;LAYER_COUNT:53
;LAYER:0
M107
G0 F6000 X115.457 Y109.247 Z0.2
;TYPE:SKIRT
G1 F2700 E0
G1 F1200 X115.659 Y109.035 E0.00974
G1 X115.923 Y108.766 E0.02228
G1 X118.634 Y106.054 E0.14982
G1 X119.245 Y105.461 E0.17814
G1 X119.945 Y104.837 E0.20933
G1 X120.697 Y104.276 E0.24053
G1 X121.493 Y103.781 E0.27171
G1 X122.329 Y103.355 E0.30291
G1 X123.198 Y103.002 E0.33411
G1 X124.093 Y102.724 E0.36528
G1 X125.01 Y102.524 E0.3965
G1 X125.939 Y102.402 E0.42766
G1 X126.531 Y102.366 E0.44739
G1 X126.915 Y102.356 E0.46016
G1 X127.458 Y102.35 E0.47823
G1 X172.397 Y102.35 E1.9729
G1 X173.256 Y102.361 E2.00148
G1 X174.192 Y102.414 E2.03266
G1 X175.12 Y102.547 E2.06384
G1 X176.034 Y102.759 E2.09504
G1 X176.927 Y103.047 E2.12625
G1 X177.791 Y103.411 E2.15744
G1 X178.622 Y103.847 E2.18865
G1 X179.412 Y104.352 E2.21983
G1 X180.156 Y104.922 E2.25101
G1 X180.58 Y105.295 E2.26979
G1 X180.732 Y105.436 E2.27668
G1 X180.933 Y105.627 E2.28591
G1 X181.192 Y105.881 E2.29797
G1 X183.925 Y108.613 E2.4265
G1 X184.5 Y109.205 E2.45395
G1 X185.124 Y109.905 E2.48514
G1 X185.686 Y110.656 E2.51634
G1 X186.182 Y111.452 E2.54753
G1 X186.608 Y112.287 E2.57871
G1 X186.962 Y113.156 E2.60992
G1 X187.24 Y114.052 E2.64112
G1 X187.441 Y114.968 E2.67231
G1 X187.54 Y115.658 E2.6955
G1 X187.558 Y115.821 E2.70095
G1 X187.623 Y116.894 E2.7367
G1 X187.629 Y117.437 E2.75477
G1 X187.628 Y137.774 E3.43118
G1 X187.615 Y138.631 E3.45968
G1 X187.541 Y141.291 E3.54819
G1 X187.541 Y143.803 E3.63174
G1 X187.59 Y145.773 E3.69728
G1 X187.618 Y146.547 E3.72304
G1 X187.624 Y146.831 E3.73249
G1 X187.629 Y147.337 E3.74932
G1 X187.628 Y167.674 E4.42573
G1 X187.615 Y168.531 E4.45424
G1 X187.541 Y171.191 E4.54275
G1 X187.541 Y173.703 E4.6263
G1 X187.59 Y175.673 E4.69184
G1 X187.618 Y176.447 E4.7176
G1 X187.624 Y176.731 E4.72705
G1 X187.629 Y177.237 E4.74388
G1 X187.628 Y197.575 E5.42032
G1 X187.618 Y198.277 E5.44367
G1 X187.565 Y199.213 E5.47485
G1 X187.432 Y200.141 E5.50603
G1 X187.22 Y201.055 E5.53724
G1 X186.932 Y201.948 E5.56845
G1 X186.568 Y202.812 E5.59963
G1 X186.132 Y203.643 E5.63084
G1 X185.627 Y204.433 E5.66203
G1 X185.057 Y205.177 E5.6932
G1 X184.684 Y205.601 E5.71199
G1 X184.543 Y205.753 E5.71888
G1 X184.341 Y205.965 E5.72862
G1 X184.16 Y206.15 E5.73723
G1 X181.25 Y209.058 E5.87406
G1 X180.756 Y209.537 E5.89695
G1 X180.056 Y210.161 E5.92814
G1 X179.305 Y210.722 E5.95931
G1 X178.508 Y211.218 E5.99054
G1 X177.673 Y211.644 E6.02171
G1 X176.804 Y211.997 E6.05291
G1 X175.908 Y212.275 E6.08411
G1 X174.992 Y212.476 E6.1153
G1 X174.062 Y212.598 E6.1465
G1 X173.47 Y212.634 E6.16623
G1 X173.085 Y212.644 E6.17904
G1 X172.542 Y212.65 E6.1971
G1 X127.446 Y212.649 E7.697
G1 X126.744 Y212.639 E7.72035
G1 X125.808 Y212.586 E7.75153
G1 X124.88 Y212.453 E7.78271
G1 X123.966 Y212.241 E7.81392
G1 X123.073 Y211.953 E7.84513
G1 X122.209 Y211.589 E7.87631
G1 X121.378 Y211.153 E7.90752
G1 X120.588 Y210.648 E7.93871
G1 X119.844 Y210.078 E7.96988
G1 X119.42 Y209.705 E7.98866
G1 X119.268 Y209.564 E7.99556
G1 X119.052 Y209.357 E8.00551
G1 X118.777 Y209.088 E8.0183
G1 X116.075 Y206.387 E8.14537
G1 X115.474 Y205.767 E8.17409
G1 X114.851 Y205.066 E8.20528
G1 X114.291 Y204.314 E8.23647
G1 X113.796 Y203.517 E8.26767
G1 X113.371 Y202.681 E8.29887
G1 X113.019 Y201.812 E8.33005
G1 X112.742 Y200.916 E8.36124
G1 X112.543 Y199.999 E8.39245
G1 X112.422 Y199.069 E8.42365
G1 X112.387 Y198.491 E8.44291
G1 X112.377 Y198.106 E8.45571
G1 X112.371 Y197.563 E8.47378
G1 X112.372 Y177.232 E9.14999
G1 X112.385 Y176.342 E9.17959
G1 X112.459 Y173.705 E9.26733
G1 X112.459 Y171.197 E9.35075
G1 X112.409 Y169.192 E9.41746
G1 X112.382 Y168.453 E9.44205
G1 X112.376 Y168.169 E9.4515
G1 X112.371 Y167.663 E9.46833
G1 X112.372 Y147.332 E10.14454
G1 X112.385 Y146.442 E10.17415
G1 X112.459 Y143.805 E10.26189
G1 X112.459 Y141.297 E10.34531
G1 X112.409 Y139.292 E10.41201
G1 X112.382 Y138.553 E10.43661
G1 X112.376 Y138.269 E10.44606
G1 X112.371 Y137.763 E10.46289
G1 X112.372 Y117.425 E11.13933
G1 X112.382 Y116.723 E11.16268
G1 X112.435 Y115.787 E11.19386
G1 X112.568 Y114.859 E11.22505
G1 X112.78 Y113.945 E11.25625
G1 X113.068 Y113.052 E11.28746
G1 X113.432 Y112.188 E11.31864
G1 X113.868 Y111.357 E11.34986
G1 X114.373 Y110.567 E11.38104
G1 X114.943 Y109.823 E11.41221
G1 X115.316 Y109.399 E11.431
G1 X115.457 Y109.247 E11.43789
G0 F6000 X115.751 Y109.519
G1 F1200 X115.945 Y109.315 E11.44726
G1 X116.206 Y109.049 E11.45965
G1 X119.037 Y106.219 E11.59279
G1 X119.523 Y105.748 E11.6153
G1 X120.211 Y105.137 E11.6459
G1 X120.95 Y104.587 E11.67654
G1 X121.734 Y104.104 E11.70717
G1 X122.556 Y103.691 E11.73777
G1 X123.412 Y103.35 E11.76841
G1 X124.294 Y103.085 E11.79904
G1 X125.195 Y102.898 E11.82965
G1 X126.544 Y102.766 E11.87473
G1 X126.919 Y102.756 E11.88721
G1 X127.458 Y102.75 E11.90514
G1 X172.397 Y102.75 E13.39981
G1 X173.25 Y102.761 E13.42819
G1 X174.169 Y102.814 E13.4588
G1 X175.08 Y102.947 E13.48942
G1 X175.976 Y103.158 E13.52004
G1 X176.851 Y103.446 E13.55068
G1 X177.697 Y103.809 E13.5813
G1 X178.508 Y104.244 E13.61191
G1 X179.279 Y104.748 E13.64254
G1 X180.308 Y105.589 E13.68675
G1 X180.46 Y105.73 E13.69364
G1 X180.653 Y105.914 E13.70251
G1 X180.909 Y106.164 E13.71441
G1 X183.755 Y109.011 E13.8483
G1 X184.213 Y109.483 E13.87018
G1 X184.825 Y110.171 E13.9008
G1 X185.375 Y110.91 E13.93144
G1 X185.859 Y111.693 E13.96206
G1 X186.273 Y112.515 E13.99267
G1 X186.613 Y113.371 E14.0233
G1 X186.879 Y114.252 E14.05391
G1 X187.067 Y115.153 E14.08453
G1 X187.142 Y115.702 E14.10296
G1 X187.16 Y115.865 E14.10841
G1 X187.223 Y116.898 E14.14283
G1 X187.229 Y117.437 E14.16076
G1 X187.228 Y137.768 E14.83697
G1 X187.215 Y138.62 E14.86531
G1 X187.141 Y141.28 E14.95382
G1 X187.141 Y143.813 E15.03807
G1 X187.191 Y145.799 E15.10414
G1 X187.218 Y146.562 E15.12954
G1 X187.224 Y146.835 E15.13862
G1 X187.229 Y147.337 E15.15532
G1 X187.228 Y167.668 E15.83153
G1 X187.215 Y168.52 E15.85987
G1 X187.141 Y171.18 E15.94837
G1 X187.141 Y173.713 E16.03262
G1 X187.191 Y175.699 E16.0987
G1 X187.218 Y176.462 E16.12409
G1 X187.224 Y176.735 E16.13317
G1 X187.229 Y177.237 E16.14987
G1 X187.228 Y197.569 E16.82612
G1 X187.218 Y198.271 E16.84947
G1 X187.165 Y199.19 E16.88008
G1 X187.032 Y200.101 E16.9107
G1 X186.821 Y200.997 E16.94132
G1 X186.533 Y201.872 E16.97196
G1 X186.17 Y202.718 E17.00258
G1 X185.735 Y203.529 E17.03319
G1 X185.231 Y204.3 E17.06382
G1 X184.39 Y205.329 E17.10803
G1 X184.249 Y205.481 E17.11492
G1 X184.055 Y205.685 E17.12428
G1 X183.874 Y205.87 E17.13289
G1 X180.972 Y208.771 E17.26937
G1 X180.478 Y209.25 E17.29226
G1 X179.79 Y209.862 E17.32288
G1 X179.051 Y210.411 E17.3535
G1 X178.268 Y210.895 E17.38412
G1 X177.445 Y211.308 E17.41475
G1 X176.59 Y211.649 E17.44536
G1 X175.708 Y211.914 E17.47599
G1 X174.807 Y212.102 E17.5066
G1 X173.457 Y212.234 E17.55172
G1 X173.081 Y212.244 E17.56423
G1 X172.542 Y212.25 E17.58216
G1 X127.452 Y212.249 E19.08186
G1 X126.75 Y212.239 E19.10521
G1 X125.831 Y212.186 E19.13583
G1 X124.92 Y212.053 E19.16645
G1 X124.024 Y211.842 E19.19706
G1 X123.149 Y211.554 E19.2277
G1 X122.303 Y211.191 E19.25832
G1 X121.492 Y210.756 E19.28893
G1 X120.721 Y210.252 E19.31957
G1 X119.692 Y209.411 E19.36377
G1 X119.54 Y209.27 E19.37066
G1 X119.332 Y209.072 E19.38021
G1 X119.06 Y208.805 E19.39289
G1 X116.358 Y206.104 E19.51996
G1 X115.762 Y205.489 E19.54845
G1 X115.151 Y204.8 E19.57908
G1 X114.602 Y204.061 E19.60969
G1 X114.12 Y203.277 E19.6403
G1 X113.707 Y202.454 E19.67093
G1 X113.368 Y201.598 E19.70155
G1 X113.104 Y200.716 E19.73217
G1 X112.917 Y199.814 E19.76281
G1 X112.787 Y198.478 E19.80746
G1 X112.777 Y198.102 E19.81997
G1 X112.771 Y197.563 E19.8379
G1 X112.772 Y177.237 E20.51394
G1 X112.785 Y176.354 E20.54331
G1 X112.859 Y173.717 E20.63106
G1 X112.859 Y171.187 E20.7152
G1 X112.809 Y169.182 E20.78191
G1 X112.782 Y168.438 E20.80667
G1 X112.776 Y168.165 E20.81576
G1 X112.771 Y167.663 E20.83245
G1 X112.772 Y147.337 E21.5085
G1 X112.785 Y146.454 E21.53787
G1 X112.859 Y143.817 E21.62561
G1 X112.859 Y141.287 E21.70976
G1 X112.809 Y139.282 E21.77647
G1 X112.782 Y138.538 E21.80123
G1 X112.776 Y138.265 E21.81031
G1 X112.771 Y137.763 E21.82701
G1 X112.772 Y117.431 E22.50325
G1 X112.782 Y116.729 E22.5266
G1 X112.835 Y115.81 E22.55722
G1 X112.968 Y114.899 E22.58784
G1 X113.179 Y114.003 E22.61846
G1 X113.467 Y113.128 E22.6491
G1 X113.83 Y112.282 E22.67972
G1 X114.265 Y111.471 E22.71033
G1 X114.769 Y110.7 E22.74096
G1 X115.61 Y109.671 E22.78516
G1 X115.751 Y109.519 E22.79206
G0 F6000 X116.044 Y109.791
G1 F1200 X116.231 Y109.595 E22.80107
G1 X116.489 Y109.332 E22.81332
G1 X119.315 Y106.506 E22.94625
G1 X119.801 Y106.035 E22.96876
G1 X120.477 Y105.436 E22.9988
G1 X121.203 Y104.899 E23.02883
G1 X121.974 Y104.428 E23.05888
G1 X122.783 Y104.028 E23.0889
G1 X123.625 Y103.7 E23.11896
G1 X124.492 Y103.448 E23.14899
G1 X125.378 Y103.274 E23.17902
G1 X126.558 Y103.166 E23.21843
G1 X126.924 Y103.156 E23.23061
G1 X127.458 Y103.15 E23.24837
G1 X172.397 Y103.15 E24.74305
G1 X173.244 Y103.161 E24.77122
G1 X174.146 Y103.214 E24.80127
G1 X175.039 Y103.346 E24.8313
G1 X175.917 Y103.557 E24.86133
G1 X176.773 Y103.845 E24.89137
G1 X177.601 Y104.207 E24.92142
G1 X178.393 Y104.641 E24.95146
G1 X179.143 Y105.144 E24.9815
G1 X180.036 Y105.882 E25.02003
G1 X180.188 Y106.023 E25.02693
G1 X180.374 Y106.2 E25.03547
G1 X180.626 Y106.447 E25.0472
G1 X183.468 Y109.29 E25.1809
G1 X183.926 Y109.762 E25.20278
G1 X184.526 Y110.437 E25.23282
G1 X185.063 Y111.163 E25.26285
G1 X185.535 Y111.933 E25.29289
G1 X185.936 Y112.742 E25.32292
G1 X186.264 Y113.584 E25.35298
G1 X186.516 Y114.451 E25.38301
G1 X186.744 Y115.745 E25.42671
G1 X186.762 Y115.908 E25.43216
G1 X186.823 Y116.903 E25.46532
G1 X186.829 Y117.437 E25.48308
G1 X186.828 Y137.762 E26.15909
G1 X186.815 Y138.609 E26.18727
G1 X186.741 Y141.269 E26.27577
G1 X186.741 Y143.823 E26.36072
G1 X186.791 Y145.822 E26.42723
G1 X186.818 Y146.576 E26.45232
G1 X186.824 Y146.839 E26.46107
G1 X186.829 Y147.337 E26.47764
G1 X186.828 Y167.662 E27.15365
G1 X186.815 Y168.509 E27.18182
G1 X186.741 Y171.169 E27.27033
G1 X186.741 Y173.723 E27.35528
G1 X186.791 Y175.722 E27.42178
G1 X186.818 Y176.476 E27.44688
G1 X186.824 Y176.739 E27.45563
G1 X186.829 Y177.237 E27.47219
G1 X186.828 Y197.563 E28.14824
G1 X186.818 Y198.265 E28.17159
G1 X186.765 Y199.167 E28.20164
G1 X186.633 Y200.06 E28.23166
G1 X186.422 Y200.938 E28.2617
G1 X186.134 Y201.794 E28.29174
G1 X185.772 Y202.622 E28.32179
G1 X185.338 Y203.414 E28.35183
G1 X184.835 Y204.164 E28.38187
G1 X184.097 Y205.057 E28.4204
G1 X183.956 Y205.209 E28.42729
G1 X183.769 Y205.405 E28.4363
G1 X183.588 Y205.59 E28.44491
G1 X180.693 Y208.484 E28.58106
G1 X180.199 Y208.963 E28.60395
G1 X179.524 Y209.562 E28.63396
G1 X178.798 Y210.099 E28.664
G1 X178.027 Y210.57 E28.69405
G1 X177.218 Y210.971 E28.72408
G1 X176.377 Y211.299 E28.7541
G1 X175.509 Y211.551 E28.78416
G1 X174.623 Y211.725 E28.8142
G1 X173.443 Y211.834 E28.85361
G1 X173.076 Y211.844 E28.86582
G1 X172.542 Y211.85 E28.88358
G1 X127.458 Y211.849 E30.38308
G1 X126.756 Y211.839 E30.40643
G1 X125.854 Y211.786 E30.43649
G1 X124.961 Y211.654 E30.46651
G1 X124.083 Y211.443 E30.49654
G1 X123.227 Y211.155 E30.52658
G1 X122.399 Y210.793 E30.55664
G1 X121.607 Y210.359 E30.58668
G1 X120.857 Y209.856 E30.61671
G1 X119.964 Y209.118 E30.65524
G1 X119.812 Y208.977 E30.66214
G1 X119.612 Y208.786 E30.67134
G1 X119.343 Y208.522 E30.68387
G1 X116.52 Y205.698 E30.81668
G1 X116.049 Y205.211 E30.83922
G1 X115.451 Y204.535 E30.86924
G1 X114.914 Y203.808 E30.8993
G1 X114.444 Y203.037 E30.92933
G1 X114.044 Y202.227 E30.95938
G1 X113.718 Y201.385 E30.98941
G1 X113.467 Y200.518 E31.01943
G1 X113.294 Y199.631 E31.04949
G1 X113.187 Y198.464 E31.08846
G1 X113.177 Y198.097 E31.10067
G1 X113.171 Y197.563 E31.11844
G1 X113.172 Y177.242 E31.79431
G1 X113.185 Y176.365 E31.82349
G1 X113.259 Y173.728 E31.91123
G1 X113.259 Y171.177 E31.99608
G1 X113.209 Y169.172 E32.06278
G1 X113.182 Y168.424 E32.08768
G1 X113.176 Y168.161 E32.09643
G1 X113.171 Y167.663 E32.11299
G1 X113.172 Y147.342 E32.78887
G1 X113.185 Y146.465 E32.81804
G1 X113.259 Y143.828 E32.90578
G1 X113.259 Y141.277 E32.99063
G1 X113.209 Y139.272 E33.05734
G1 X113.182 Y138.524 E33.08223
G1 X113.176 Y138.261 E33.09098
G1 X113.171 Y137.763 E33.10755
G1 X113.172 Y117.437 E33.78359
G1 X113.182 Y116.735 E33.80694
G1 X113.235 Y115.833 E33.837
G1 X113.367 Y114.94 E33.86702
G1 X113.578 Y114.062 E33.89705
G1 X113.866 Y113.206 E33.92709
G1 X114.228 Y112.378 E33.95715
G1 X114.662 Y111.586 E33.98719
G1 X115.165 Y110.836 E34.01722
G1 X115.903 Y109.943 E34.05575
G1 X116.044 Y109.791 E34.06265
G1 F2700 E29.06265
;MESH:otto-diy_ninja_plate-ultrasonic.stl
G0 F6000 X130.009 Y124.501
G0 X128.353 Y123.66
G0 X128.06 Y128.053
G0 X128.216 Y129.705
G0 X128.412 Y130.522
G0 X129.024 Y132.079
G0 X129.918 Y133.495
G0 X130.459 Y134.134
G0 X131.06 Y134.721
G0 X132.409 Y135.711
G0 X133.149 Y136.108
G0 X134.42 Y136.574
G0 X138.111 Y137.476
;TYPE:WALL-INNER
G1 F2700 E34.06265
G1 F1200 X138.99 Y137.331 E34.09228
G1 X139.851 Y137.103 E34.1219
G1 X140.689 Y136.796 E34.15159
G1 X141.491 Y136.412 E34.18116
G1 X142.257 Y135.956 E34.21081
G1 X142.974 Y135.427 E34.24045
G1 X143.64 Y134.835 E34.27009
G1 X144.246 Y134.184 E34.29967
G1 X144.789 Y133.479 E34.32926
G1 X145.264 Y132.727 E34.35885
G1 X145.667 Y131.931 E34.38852
G1 X145.994 Y131.103 E34.41813
G1 X146.242 Y130.247 E34.44777
G1 X146.406 Y129.371 E34.47742
G1 X146.491 Y128.485 E34.50702
G1 X146.491 Y127.594 E34.53665
G1 X146.406 Y126.708 E34.56626
G1 X146.242 Y125.832 E34.5959
G1 X145.994 Y124.976 E34.62554
G1 X145.667 Y124.148 E34.65515
G1 X145.264 Y123.352 E34.68483
G1 X144.789 Y122.6 E34.71441
G1 X144.246 Y121.895 E34.74401
G1 X143.64 Y121.244 E34.77359
G1 X142.974 Y120.652 E34.80323
G1 X142.257 Y120.123 E34.83286
G1 X141.491 Y119.667 E34.86251
G1 X140.689 Y119.283 E34.89209
G1 X139.851 Y118.976 E34.92177
G1 X138.99 Y118.748 E34.95139
G1 X138.111 Y118.603 E34.98102
G1 X137.222 Y118.542 E35.01066
G1 X136.333 Y118.563 E35.04024
G1 X135.448 Y118.666 E35.06987
G1 X134.577 Y118.853 E35.0995
G1 X133.727 Y119.12 E35.12913
G1 X132.908 Y119.466 E35.15871
G1 X132.12 Y119.886 E35.18841
G1 X131.38 Y120.379 E35.21798
G1 X130.687 Y120.939 E35.24761
G1 X130.049 Y121.562 E35.27727
G1 X129.474 Y122.242 E35.30689
G1 X128.963 Y122.97 E35.33647
G1 X128.524 Y123.746 E35.36613
G1 X128.159 Y124.558 E35.39574
G1 X127.872 Y125.402 E35.42539
G1 X127.666 Y126.268 E35.455
G1 X127.54 Y127.151 E35.48466
G1 X127.5 Y128.053 E35.51469
G1 X127.54 Y128.93 E35.54389
G1 X127.666 Y129.811 E35.57349
G1 X127.872 Y130.677 E35.6031
G1 X128.159 Y131.521 E35.63275
G1 X128.524 Y132.333 E35.66236
G1 X128.963 Y133.109 E35.69201
