;FLAVOR:Marlin
;TIME:20184
;Filament used: 11.937m
;Layer height: 0.2
;MINX:111.399
;MINY:118.9
;MINZ:0.2
;MAXX:188.601
;MAXY:196.1
;MAXZ:53.8
;Generated with Cura_SteamEngine 4.13.0
M82 ;absolute extrusion mode
; START OF PREHEAT AND HOMEING SEQUENCE
M107 ;Turn off part cooling blowers
M140 S50 ;Start heating bed
M104 S200 ;Start heating extruder

; Home and move to center of the bed
G1 Z2.0 F3000; Move Z Axis up to prevent scratching bed
G28 ;Home
M420 S1 Z2 ; Use ABL to center on the bed
G1 Z62.0 F1000; Move Z Axis up to manual addjust steppers
M190 S50 ;Wait for bed to reach temp before proceeding
M109 S200 ;Wait for extruder to reach temp before proceeding
G28 ;Home and reset leveling
; END OF PREHEAT AND HOMEING SEQUENCE

M201 X500.00 Y500.00 Z100.00 E5000.00 ;Setup machine max acceleration
M203 X500.00 Y500.00 Z10.00 E50.00 ;Setup machine max feedrate
M204 P500.00 R1000.00 T500.00 ;Setup Print/Retract/Travel acceleration
M205 X8.00 Y8.00 Z0.40 E5.00 ;Setup Jerk
M220 S100 ;Reset Feedrate
M221 S100 ;Reset Flowrate
M420 S1 Z2 ;Enable ABL using saved Mesh and Fade Height

G92 E0 ;Reset Extruder
G1 Z2.0 F3000 ;Move Z Axis up
G1 X10.1 Y20 Z0.28 F5000.0 ;Move to start position
G1 X10.1 Y200.0 Z0.28 F1500.0 E15 ;Draw the first line
G1 X10.4 Y200.0 Z0.28 F5000.0 ;Move to side a little
G1 X10.4 Y20 Z0.28 F1500.0 E30 ;Draw the second line
G92 E0 ;Reset Extruder
G1 Z2.0 F3000 ;Move Z Axis up
G92 E0
G92 E0
G1 F2700 E-5
;LAYER_COUNT:269
;LAYER:0
M107
G0 F6000 X119.381 Y122.464 Z0.2
;TYPE:SKIRT
G1 F2700 E0
G1 F1200 X119.845 Y122.014 E0.0215
G1 X120.545 Y121.39 E0.05269
G1 X121.296 Y120.828 E0.08389
G1 X122.093 Y120.333 E0.11509
G1 X122.928 Y119.906 E0.14628
G1 X123.797 Y119.553 E0.17748
G1 X124.693 Y119.275 E0.20868
G1 X125.609 Y119.074 E0.23987
G1 X126.539 Y118.952 E0.27107
G1 X127.086 Y118.918 E0.2893
G1 X127.531 Y118.905 E0.30411
G1 X128 Y118.9 E0.31971
G1 X171.795 Y118.9 E1.77633
G1 X172.652 Y118.911 E1.80484
G1 X173.588 Y118.964 E1.83602
G1 X174.517 Y119.097 E1.86724
G1 X175.431 Y119.309 E1.89844
G1 X176.323 Y119.598 E1.92963
G1 X177.187 Y119.961 E1.9608
G1 X178.018 Y120.397 E1.99201
G1 X178.808 Y120.902 E2.0232
G1 X179.553 Y121.473 E2.05442
G1 X179.961 Y121.832 E2.07249
G1 X180.093 Y121.954 E2.07847
G1 X180.309 Y122.159 E2.08837
G1 X180.652 Y122.495 E2.10434
G1 X185.006 Y126.849 E2.30914
G1 X185.482 Y127.339 E2.33186
G1 X186.106 Y128.039 E2.36305
G1 X186.669 Y128.79 E2.39427
G1 X187.165 Y129.586 E2.42547
G1 X187.592 Y130.421 E2.45666
G1 X187.946 Y131.289 E2.48784
G1 X188.225 Y132.185 E2.51905
G1 X188.426 Y133.101 E2.55024
G1 X188.549 Y134.031 E2.58144
G1 X188.587 Y134.683 E2.60316
G1 X188.595 Y135.008 E2.61398
G1 X188.601 Y135.554 E2.63214
G1 X188.6 Y179.451 E4.09216
G1 X188.59 Y180.153 E4.11551
G1 X188.537 Y181.089 E4.14669
G1 X188.404 Y182.017 E4.17787
G1 X188.192 Y182.931 E4.20908
G1 X187.904 Y183.824 E4.24029
G1 X187.54 Y184.688 E4.27147
G1 X187.104 Y185.519 E4.30268
G1 X186.599 Y186.309 E4.33387
G1 X186.029 Y187.053 E4.36504
G1 X185.671 Y187.46 E4.38307
G1 X185.55 Y187.591 E4.389
G1 X185.327 Y187.826 E4.39978
G1 X185.083 Y188.075 E4.41137
G1 X180.658 Y192.499 E4.61949
G1 X180.181 Y192.963 E4.64162
G1 X179.481 Y193.588 E4.67283
G1 X178.731 Y194.15 E4.704
G1 X177.936 Y194.647 E4.73519
G1 X177.101 Y195.075 E4.76639
G1 X176.233 Y195.429 E4.79757
G1 X175.337 Y195.709 E4.82879
G1 X174.422 Y195.911 E4.85996
G1 X173.656 Y196.018 E4.88568
G1 X173.484 Y196.036 E4.89144
G1 X172.469 Y196.095 E4.92525
G1 X172 Y196.1 E4.94085
G1 X128.048 Y196.099 E6.4027
G1 X127.347 Y196.089 E6.42602
G1 X126.411 Y196.036 E6.4572
G1 X125.482 Y195.903 E6.48841
G1 X124.569 Y195.691 E6.51959
G1 X123.676 Y195.403 E6.5508
G1 X122.812 Y195.039 E6.58198
G1 X121.981 Y194.603 E6.61319
G1 X121.191 Y194.098 E6.64438
G1 X120.447 Y193.528 E6.67555
G1 X120.015 Y193.147 E6.69471
G1 X119.873 Y193.015 E6.70116
G1 X119.661 Y192.813 E6.7109
G1 X119.329 Y192.486 E6.7264
G1 X114.994 Y188.15 E6.93032
G1 X114.519 Y187.661 E6.953
G1 X113.894 Y186.961 E6.98421
G1 X113.332 Y186.211 E7.01538
G1 X112.836 Y185.415 E7.04658
G1 X112.409 Y184.58 E7.07777
G1 X112.055 Y183.711 E7.10898
G1 X111.776 Y182.816 E7.14016
G1 X111.575 Y181.9 E7.17135
G1 X111.452 Y180.97 E7.20255
G1 X111.416 Y180.395 E7.22171
G1 X111.405 Y179.992 E7.23512
G1 X111.399 Y179.446 E7.25328
G1 X111.4 Y135.549 E8.7133
G1 X111.41 Y134.847 E8.73665
G1 X111.463 Y133.911 E8.76784
G1 X111.596 Y132.983 E8.79902
G1 X111.808 Y132.069 E8.83022
G1 X112.096 Y131.176 E8.86143
G1 X112.46 Y130.312 E8.89261
G1 X112.896 Y129.481 E8.92383
G1 X113.401 Y128.691 E8.95501
G1 X113.971 Y127.947 E8.98618
G1 X114.329 Y127.54 E9.00421
G1 X114.45 Y127.409 E9.01014
G1 X114.673 Y127.174 E9.02092
G1 X114.997 Y126.845 E9.03628
G1 X119.381 Y122.464 E9.24242
G0 F6000 X119.659 Y122.751
G1 F1200 X120.123 Y122.301 E9.26391
G1 X120.811 Y121.689 E9.29454
G1 X121.55 Y121.139 E9.32518
G1 X122.334 Y120.656 E9.35581
G1 X123.156 Y120.242 E9.38642
G1 X124.011 Y119.902 E9.41702
G1 X124.893 Y119.636 E9.44766
G1 X125.794 Y119.449 E9.47827
G1 X127.101 Y119.318 E9.52196
G1 X127.536 Y119.305 E9.53643
G1 X128 Y119.3 E9.55187
G1 X171.795 Y119.3 E11.00849
G1 X172.646 Y119.311 E11.0368
G1 X173.566 Y119.364 E11.06745
G1 X174.477 Y119.497 E11.09807
G1 X175.373 Y119.708 E11.12869
G1 X176.247 Y119.996 E11.1593
G1 X177.093 Y120.359 E11.18991
G1 X177.905 Y120.794 E11.22055
G1 X178.675 Y121.298 E11.25116
G1 X179.69 Y122.126 E11.29473
G1 X180.03 Y122.445 E11.31023
G1 X180.369 Y122.778 E11.32604
G1 X184.719 Y127.128 E11.53065
G1 X185.195 Y127.618 E11.55337
G1 X185.807 Y128.306 E11.584
G1 X186.358 Y129.044 E11.61463
G1 X186.842 Y129.827 E11.64525
G1 X187.256 Y130.649 E11.67586
G1 X187.598 Y131.504 E11.70649
G1 X187.863 Y132.385 E11.73709
G1 X188.052 Y133.287 E11.76774
G1 X188.162 Y134.201 E11.79836
G1 X188.187 Y134.695 E11.81481
G1 X188.195 Y135.013 E11.82539
G1 X188.201 Y135.554 E11.84338
G1 X188.2 Y179.445 E13.3032
G1 X188.19 Y180.147 E13.32656
G1 X188.137 Y181.066 E13.35717
G1 X188.004 Y181.977 E13.38779
G1 X187.793 Y182.873 E13.41841
G1 X187.505 Y183.748 E13.44905
G1 X187.142 Y184.594 E13.47967
G1 X186.707 Y185.405 E13.51028
G1 X186.203 Y186.176 E13.54091
G1 X185.378 Y187.188 E13.58434
G1 X185.257 Y187.319 E13.59027
G1 X185.041 Y187.546 E13.60069
G1 X184.797 Y187.795 E13.61229
G1 X180.379 Y192.212 E13.82007
G1 X179.902 Y192.676 E13.84221
G1 X179.215 Y193.289 E13.87283
G1 X178.477 Y193.84 E13.90346
G1 X177.694 Y194.324 E13.93408
G1 X176.873 Y194.739 E13.96468
G1 X176.018 Y195.081 E13.9953
G1 X175.137 Y195.348 E14.02592
G1 X174.235 Y195.537 E14.05657
G1 X173.614 Y195.62 E14.07741
G1 X173.442 Y195.638 E14.08316
G1 X172.464 Y195.695 E14.11575
G1 X172 Y195.7 E14.13118
G1 X128.054 Y195.699 E15.59283
G1 X127.353 Y195.689 E15.61615
G1 X126.434 Y195.636 E15.64677
G1 X125.523 Y195.503 E15.67739
G1 X124.627 Y195.292 E15.708
G1 X123.752 Y195.004 E15.73864
G1 X122.906 Y194.641 E15.76926
G1 X122.095 Y194.206 E15.79987
G1 X121.324 Y193.702 E15.83051
G1 X120.287 Y192.854 E15.87506
G1 X120.145 Y192.722 E15.88151
G1 X119.941 Y192.527 E15.8909
G1 X119.612 Y192.203 E15.90625
G1 X115.281 Y187.872 E16.10997
G1 X114.806 Y187.383 E16.13265
G1 X114.193 Y186.695 E16.16329
G1 X113.643 Y185.957 E16.19391
G1 X113.159 Y185.174 E16.22452
G1 X112.745 Y184.352 E16.25513
G1 X112.403 Y183.497 E16.28576
G1 X112.137 Y182.615 E16.3164
G1 X111.949 Y181.714 E16.34702
G1 X111.816 Y180.381 E16.39157
G1 X111.805 Y179.987 E16.40468
G1 X111.799 Y179.446 E16.42268
G1 X111.8 Y135.555 E17.8825
G1 X111.81 Y134.853 E17.90585
G1 X111.863 Y133.934 E17.93646
G1 X111.996 Y133.023 E17.96709
G1 X112.207 Y132.127 E17.9977
G1 X112.495 Y131.252 E18.02834
G1 X112.858 Y130.406 E18.05896
G1 X113.293 Y129.595 E18.08957
G1 X113.797 Y128.824 E18.1202
G1 X114.622 Y127.812 E18.16363
G1 X114.743 Y127.681 E18.16956
G1 X114.959 Y127.454 E18.17998
G1 X115.28 Y127.128 E18.1952
G1 X119.659 Y122.751 E18.40113
G0 F6000 X119.938 Y123.038
G1 F1200 X120.402 Y122.588 E18.42263
G1 X121.077 Y121.988 E18.45267
G1 X121.803 Y121.451 E18.4827
G1 X122.574 Y120.98 E18.51275
G1 X123.383 Y120.579 E18.54278
G1 X124.224 Y120.251 E18.57281
G1 X125.092 Y119.999 E18.60287
G1 X125.978 Y119.825 E18.6329
G1 X127.116 Y119.717 E18.67092
G1 X127.274 Y119.711 E18.67618
G1 X127.541 Y119.705 E18.68506
G1 X128 Y119.7 E18.70033
G1 X171.795 Y119.7 E20.15696
G1 X172.641 Y119.711 E20.1851
G1 X173.542 Y119.764 E20.21512
G1 X174.436 Y119.896 E20.24517
G1 X175.314 Y120.107 E20.27521
G1 X176.17 Y120.395 E20.30524
G1 X176.997 Y120.757 E20.33527
G1 X177.789 Y121.191 E20.36531
G1 X178.539 Y121.694 E20.39534
G1 X179.418 Y122.419 E20.43324
G1 X179.55 Y122.541 E20.43922
G1 X179.751 Y122.732 E20.44844
G1 X180.087 Y123.061 E20.46408
G1 X184.432 Y127.407 E20.66848
G1 X184.908 Y127.897 E20.6912
G1 X185.508 Y128.572 E20.72124
G1 X186.046 Y129.297 E20.75127
G1 X186.518 Y130.067 E20.78131
G1 X186.919 Y130.876 E20.81134
G1 X187.248 Y131.717 E20.84137
G1 X187.501 Y132.584 E20.87141
G1 X187.676 Y133.47 E20.90145
G1 X187.788 Y134.706 E20.94273
G1 X187.795 Y135.018 E20.95311
G1 X187.801 Y135.554 E20.97094
G1 X187.8 Y179.439 E22.43056
G1 X187.79 Y180.141 E22.45391
G1 X187.737 Y181.043 E22.48396
G1 X187.605 Y181.936 E22.51399
G1 X187.394 Y182.814 E22.54402
G1 X187.106 Y183.67 E22.57406
G1 X186.744 Y184.498 E22.60412
G1 X186.31 Y185.29 E22.63415
G1 X185.807 Y186.04 E22.66419
G1 X185.084 Y186.917 E22.70199
G1 X184.963 Y187.048 E22.70792
G1 X184.755 Y187.266 E22.71795
G1 X184.511 Y187.515 E22.72954
G1 X180.1 Y191.925 E22.937
G1 X179.623 Y192.389 E22.95913
G1 X178.949 Y192.99 E22.98917
G1 X178.224 Y193.528 E23.01919
G1 X177.454 Y194 E23.04923
G1 X176.645 Y194.403 E23.07929
G1 X175.804 Y194.732 E23.10933
G1 X174.937 Y194.985 E23.13937
G1 X174.051 Y195.161 E23.16941
G1 X173.573 Y195.223 E23.18544
G1 X173.401 Y195.241 E23.1912
G1 X172.459 Y195.295 E23.22258
G1 X172 Y195.3 E23.23785
G1 X128.06 Y195.299 E24.6993
G1 X127.359 Y195.289 E24.72261
G1 X126.457 Y195.236 E24.75267
G1 X125.564 Y195.104 E24.78269
G1 X124.685 Y194.893 E24.81276
G1 X123.829 Y194.605 E24.8428
G1 X123.002 Y194.243 E24.87282
G1 X122.21 Y193.809 E24.90286
G1 X121.46 Y193.306 E24.93289
G1 X120.559 Y192.561 E24.97178
G1 X120.417 Y192.429 E24.97823
G1 X120.221 Y192.241 E24.98726
G1 X119.894 Y191.92 E25.0025
G1 X115.568 Y187.593 E25.20601
G1 X115.093 Y187.104 E25.22868
G1 X114.493 Y186.429 E25.25872
G1 X113.955 Y185.704 E25.28875
G1 X113.483 Y184.933 E25.31881
G1 X113.081 Y184.124 E25.34886
G1 X112.753 Y183.283 E25.37888
G1 X112.5 Y182.416 E25.40892
G1 X112.325 Y181.53 E25.43896
G1 X112.216 Y180.366 E25.47785
G1 X112.205 Y179.982 E25.49062
G1 X112.199 Y179.446 E25.50845
G1 X112.2 Y135.561 E26.96807
G1 X112.21 Y134.859 E26.99142
G1 X112.263 Y133.957 E27.02148
G1 X112.395 Y133.064 E27.0515
G1 X112.606 Y132.186 E27.08153
G1 X112.894 Y131.33 E27.11157
G1 X113.256 Y130.502 E27.14163
G1 X113.69 Y129.71 E27.17167
G1 X114.193 Y128.96 E27.2017
G1 X114.916 Y128.083 E27.23951
G1 X115.037 Y127.952 E27.24544
G1 X115.245 Y127.734 E27.25546
G1 X115.562 Y127.411 E27.27051
G1 X119.938 Y123.038 E27.47627
G1 F2700 E22.47627
;MESH:otto-diy_ninja_head.stl
G0 F6000 X126.935 Y129.524
G0 X127.63 Y130.218
G0 X172.015 Y131.074
G0 X173.996 Y133.086
G0 X166.517 Y134.461
G0 X166.108 Y138.417
G0 X168.793 Y141.167
;TYPE:WALL-INNER
G1 F2700 E27.47627
G1 F1200 X169.572 Y141.25 E27.50233
G1 X173.686 Y141.25 E27.63916
G1 X174.465 Y141.165 E27.66523
G1 X175.26 Y140.906 E27.69304
G1 X175.981 Y140.489 E27.72074
G1 X176.601 Y139.928 E27.74855
G1 X176.601 Y140.377 E27.75363
G1 X176.601 Y179.587 E29.05776
G1 X172.087 Y184.1 E29.27006
G1 X127.913 Y184.1 E30.73929
G1 X123.399 Y179.587 E30.95159
G1 X123.399 Y135.413 E32.42083
G1 X127.913 Y130.9 E32.63313
G1 X172.087 Y130.9 E34.10236
G1 X174.25 Y133.062 E34.20408
G1 X174.551 Y133.363 E34.21824
G1 X174.457 Y133.333 E34.22152
G1 X173.678 Y133.25 E34.24399
G1 X169.564 Y133.25 E34.38082
G1 X168.785 Y133.335 E34.40688
G1 X167.99 Y133.594 E34.43469
G1 X167.269 Y134.011 E34.46239
G1 X166.645 Y134.576 E34.49039
G1 X166.155 Y135.252 E34.51816
G1 X165.815 Y136.013 E34.54588
G1 X165.641 Y136.837 E34.57389
G1 X165.642 Y137.677 E34.60183
G1 X165.819 Y138.495 E34.62967
G1 X166.16 Y139.26 E34.65753
G1 X166.655 Y139.936 E34.68539
G1 X167.277 Y140.495 E34.71321
G1 X168.003 Y140.913 E34.74107
G1 X168.793 Y141.167 E34.76867
G0 F6000 X168.876 Y140.774
G1 F1200 X169.593 Y140.85 E34.79265
G1 X173.664 Y140.85 E34.92805
G1 X174.381 Y140.772 E34.95204
G1 X175.096 Y140.539 E34.97705
G1 X175.744 Y140.164 E35.00196
G1 X176.306 Y139.655 E35.02717
G1 X176.747 Y139.047 E35.05216
G1 X177.001 Y138.477 E35.07291
G1 X177.001 Y139.047 E35.07864
G1 X177.001 Y179.753 E36.43253
G1 X172.253 Y184.5 E36.65583
G1 X127.747 Y184.5 E38.13611
G1 X122.999 Y179.753 E38.35942
G1 X122.999 Y135.247 E39.83969
G1 X127.747 Y130.5 E40.063
G1 X172.253 Y130.5 E41.54328
G1 X175.499 Y133.746 E41.69596
G1 X175.91 Y134.157 E41.71529
G1 X176.442 Y134.688 E41.74029
G1 X177.001 Y135.247 E41.76658
G1 X177.001 Y136.022 E41.79236
G1 X176.742 Y135.442 E41.79986
G1 X176.297 Y134.834 E41.81629
G1 X175.737 Y134.331 E41.83042
G1 X175.084 Y133.955 E41.85123
G1 X174.374 Y133.726 E41.87604
G1 X173.657 Y133.65 E41.90002
G1 X169.586 Y133.65 E42.03542
G1 X168.869 Y133.728 E42.05941
G1 X168.154 Y133.961 E42.08442
G1 X167.506 Y134.336 E42.10933
G1 X166.944 Y134.845 E42.13454
G1 X166.503 Y135.453 E42.15953
G1 X166.198 Y136.137 E42.18444
G1 X166.041 Y136.879 E42.20966
G1 X166.042 Y137.634 E42.23477
G1 X166.201 Y138.37 E42.25982
G1 X166.508 Y139.058 E42.28487
G1 X166.953 Y139.666 E42.30993
G1 X167.513 Y140.169 E42.33497
G1 X168.166 Y140.545 E42.36003
G1 X168.876 Y140.774 E42.38484
G0 F6000 X168.959 Y140.381
;TYPE:WALL-OUTER
G1 F1200 X169.614 Y140.45 E42.40675
G1 X173.642 Y140.45 E42.54072
G1 X174.297 Y140.379 E42.56264
G1 X174.932 Y140.172 E42.58485
G1 X175.507 Y139.839 E42.60695
G1 X176.007 Y139.386 E42.62939
G1 X176.399 Y138.846 E42.65158
G1 X176.669 Y138.239 E42.67368
G1 X176.809 Y137.579 E42.69612
G1 X176.808 Y136.909 E42.7184
G1 X176.667 Y136.255 E42.74066
G1 X176.394 Y135.644 E42.76291
G1 X175.999 Y135.104 E42.78517
G1 X175.501 Y134.657 E42.80742
G1 X174.921 Y134.323 E42.82969
G1 X174.291 Y134.119 E42.85171
G1 X173.636 Y134.05 E42.87362
G1 X169.608 Y134.05 E43.00759
G1 X168.953 Y134.121 E43.0295
G1 X168.318 Y134.328 E43.05172
G1 X167.743 Y134.661 E43.07382
G1 X167.243 Y135.114 E43.09626
G1 X166.851 Y135.654 E43.11845
G1 X166.581 Y136.261 E43.14055
G1 X166.441 Y136.921 E43.16299
G1 X166.442 Y137.591 E43.18527
G1 X166.583 Y138.245 E43.20752
G1 X166.856 Y138.856 E43.22978
G1 X167.251 Y139.396 E43.25203
G1 X167.749 Y139.843 E43.27429
G1 X168.329 Y140.177 E43.29655
G1 X168.959 Y140.381 E43.31858
G0 F6000 X168.868 Y140.811
G1 F2700 E38.31858
G0 F6000 X167.918 Y141.106
G0 X168.683 Y139.383
G0 X167.918 Y147.165
G0 X167.918 Y145.31
G0 X156.577 Y146.172
G0 X155.925 Y167.509
G0 X144.277 Y168.37
G0 X144.095 Y178.375
;TYPE:WALL-INNER
G1 F2700 E43.31858
G1 F1200 X144.095 Y168.188 E43.6574
G1 X155.905 Y168.188 E44.0502
G1 X155.905 Y178.375 E44.38902
G1 X176.058 Y178.375 E45.05931
G1 X176.057 Y145.5 E46.15274
G1 X155.905 Y145.5 E46.823
G1 X155.905 Y165.106 E47.47509
G1 X155.905 Y165.951 E47.5032
G1 X155.528 Y165.196 E47.51759
G1 X150.618 Y155.378 E47.8827
G1 X149.382 Y155.378 E47.92381
G1 X144.472 Y165.196 E48.28891
G1 X144.095 Y165.951 E48.31698
G1 X144.095 Y165.106 E48.33143
G1 X144.095 Y145.5 E48.98352
G1 X123.942 Y145.5 E49.65382
G1 X123.943 Y178.375 E50.74724
G1 X144.095 Y178.375 E51.4175
G0 F6000 X143.695 Y177.975
G1 F1200 X143.695 Y167.788 E51.75632
G1 X156.305 Y167.788 E52.17573
G1 X156.305 Y177.975 E52.51455
G1 X175.658 Y177.975 E53.15824
G1 X175.657 Y145.9 E54.22506
G1 X156.305 Y145.9 E54.86871
G1 X156.305 Y166.801 E55.56388
G1 X156.305 Y167.646 E55.59198
G1 X155.928 Y166.891 E55.60637
G1 X150.371 Y155.778 E56.01963
G1 X149.629 Y155.778 E56.04431
G1 X144.072 Y166.891 E56.45756
G1 X143.695 Y167.646 E56.48563
G1 X143.695 Y166.801 E56.50007
G1 X143.695 Y145.9 E57.19524
G1 X124.342 Y145.9 E57.83893
G1 X124.343 Y177.975 E58.90574
G1 X143.695 Y177.975 E59.54939
G0 F6000 X143.295 Y177.575
