;FLAVOR:Marlin
;TIME:5143
;Filament used: 3.15784m
;Layer height: 0.2
;MINX:108.25
;MINY:121.25
;MINZ:0.2
;MAXX:191.75
;MAXY:193.75
;MAXZ:29.8
;Generated with Cura_SteamEngine 4.13.0
M82 ;absolute extrusion mode
; START OF PREHEAT AND HOMEING SEQUENCE
M107 ;Turn off part cooling blowers
M140 S50 ;Start heating bed
M104 S200 ;Start heating extruder

; Home and move to center of the bed
G1 Z2.0 F3000; Move Z Axis up to prevent scratching bed
G28 ;Home
M420 S1 Z2 ; Use ABL to center on the bed
G1 Z62.0 F1000; Move Z Axis up to manual addjust steppers
M190 S50 ;Wait for bed to reach temp before proceeding
M109 S200 ;Wait for extruder to reach temp before proceeding
G28 ;Home and reset leveling
; END OF PREHEAT AND HOMEING SEQUENCE

M201 X500.00 Y500.00 Z100.00 E5000.00 ;Setup machine max acceleration
M203 X500.00 Y500.00 Z10.00 E50.00 ;Setup machine max feedrate
M204 P500.00 R1000.00 T500.00 ;Setup Print/Retract/Travel acceleration
M205 X8.00 Y8.00 Z0.40 E5.00 ;Setup Jerk
M220 S100 ;Reset Feedrate
M221 S100 ;Reset Flowrate
M420 S1 Z2 ;Enable ABL using saved Mesh and Fade Height

G92 E0 ;Reset Extruder
G1 Z2.0 F3000 ;Move Z Axis up
G1 X10.1 Y20 Z0.28 F5000.0 ;Move to start position
G1 X10.1 Y200.0 Z0.28 F1500.0 E15 ;Draw the first line
G1 X10.4 Y200.0 Z0.28 F5000.0 ;Move to side a little
G1 X10.4 Y20 Z0.28 F1500.0 E30 ;Draw the second line
G92 E0 ;Reset Extruder
G1 Z2.0 F3000 ;Move Z Axis up
G92 E0
G92 E0
G1 F2700 E-5
;LAYER_COUNT:149
;LAYER:0
M107
G0 F6000 X112.149 Y125.616 Z0.2
;TYPE:SKIRT
G1 F2700 E0
G1 F1200 X112.89 Y125.041 E0.0312
G1 X113.677 Y124.531 E0.06239
G1 X114.505 Y124.09 E0.09359
G1 X115.367 Y123.721 E0.12478
G1 X116.258 Y123.427 E0.15598
G1 X117.17 Y123.209 E0.18717
G1 X118.097 Y123.071 E0.21834
G1 X118.664 Y123.025 E0.23726
G1 X119.001 Y123.007 E0.24849
G1 X121.23 Y122.91 E0.32269
G1 X123.743 Y122.729 E0.40649
G1 X126.237 Y122.478 E0.48986
G1 X128.764 Y122.152 E0.57461
G1 X131.213 Y121.765 E0.65707
G1 X132.3 Y121.563 E0.69385
G1 X133.151 Y121.417 E0.72256
G1 X134.081 Y121.298 E0.75375
G1 X134.701 Y121.263 E0.7744
G1 X135.02 Y121.254 E0.78502
G1 X135.33 Y121.25 E0.79533
G1 X143.043 Y121.25 E1.05186
G1 X143.905 Y121.261 E1.08054
G1 X144.21 Y121.27 E1.09068
G1 X145.205 Y121.313 E1.12381
G1 X146.26 Y121.373 E1.15895
G1 X148.806 Y121.444 E1.24367
G1 X151.33 Y121.442 E1.32762
G1 X153.862 Y121.37 E1.41187
G1 X155.18 Y121.304 E1.45576
G1 X155.623 Y121.278 E1.47052
G1 X155.951 Y121.263 E1.48144
G1 X156.269 Y121.254 E1.49202
G1 X156.58 Y121.25 E1.50236
G1 X164.451 Y121.251 E1.76415
G1 X165.148 Y121.261 E1.78734
G1 X166.084 Y121.315 E1.81852
G1 X166.995 Y121.444 E1.84912
G1 X167.486 Y121.535 E1.86573
G1 X170.056 Y121.976 E1.95246
G1 X172.546 Y122.33 E2.03611
G1 X175.04 Y122.614 E2.1196
G1 X177.545 Y122.828 E2.20322
G1 X180.161 Y122.976 E2.29037
G1 X181.204 Y123.02 E2.32509
G1 X182.138 Y123.099 E2.35626
G1 X183.063 Y123.258 E2.38748
G1 X183.97 Y123.495 E2.41866
G1 X184.854 Y123.808 E2.44985
G1 X185.708 Y124.195 E2.48103
G1 X186.526 Y124.654 E2.51223
G1 X187.302 Y125.181 E2.54343
G1 X188.03 Y125.772 E2.57462
G1 X188.706 Y126.423 E2.60583
G1 X189.323 Y127.129 E2.63702
G1 X189.878 Y127.885 E2.66821
G1 X190.367 Y128.686 E2.69942
G1 X190.785 Y129.525 E2.7306
G1 X191.131 Y130.397 E2.7618
G1 X191.401 Y131.295 E2.79299
G1 X191.593 Y132.213 E2.82419
G1 X191.707 Y133.144 E2.85538
G1 X191.737 Y133.701 E2.87394
G1 X191.746 Y134.021 E2.88458
G1 X191.75 Y134.33 E2.89486
G1 X191.749 Y178.225 E4.35481
G1 X191.739 Y178.927 E4.37817
G1 X191.686 Y179.863 E4.40935
G1 X191.553 Y180.791 E4.44053
G1 X191.341 Y181.705 E4.47173
G1 X191.053 Y182.598 E4.50294
G1 X190.689 Y183.462 E4.53413
G1 X190.253 Y184.293 E4.56534
G1 X189.748 Y185.083 E4.59652
G1 X189.178 Y185.827 E4.6277
G1 X188.805 Y186.251 E4.64648
G1 X188.664 Y186.403 E4.65337
G1 X188.462 Y186.615 E4.66311
G1 X188.281 Y186.8 E4.67172
G1 X184.921 Y190.158 E4.82972
G1 X184.427 Y190.637 E4.85261
G1 X183.727 Y191.261 E4.88379
G1 X182.976 Y191.822 E4.91497
G1 X182.179 Y192.318 E4.9462
G1 X181.344 Y192.744 E4.97737
G1 X180.475 Y193.097 E5.00857
G1 X179.579 Y193.375 E5.03977
G1 X178.663 Y193.576 E5.07096
G1 X177.733 Y193.698 E5.10216
G1 X177.141 Y193.734 E5.12189
G1 X176.756 Y193.744 E5.1347
G1 X176.213 Y193.75 E5.15276
G1 X170.45 Y193.749 E5.34444
G1 X169.751 Y193.739 E5.36769
G1 X168.814 Y193.685 E5.3989
G1 X167.899 Y193.555 E5.42964
G1 X166.522 Y193.298 E5.47623
G1 X166.203 Y193.234 E5.48705
G1 X163.696 Y192.807 E5.57164
G1 X161.226 Y192.457 E5.65461
G1 X158.691 Y192.171 E5.73946
G1 X156.219 Y191.963 E5.82197
G1 X153.69 Y191.822 E5.90622
G1 X151.167 Y191.752 E5.99016
G1 X148.642 Y191.754 E6.07414
G1 X146.155 Y191.826 E6.1569
G1 X143.637 Y191.971 E6.24079
G1 X141.092 Y192.189 E6.32574
G1 X138.623 Y192.472 E6.4084
G1 X136.153 Y192.825 E6.49139
G1 X133.613 Y193.262 E6.57711
G1 X132.19 Y193.539 E6.62533
G1 X131.262 Y193.678 E6.65654
G1 X130.399 Y193.737 E6.68531
G1 X130.08 Y193.746 E6.69592
G1 X129.77 Y193.75 E6.70623
G1 X123.775 Y193.749 E6.90563
G1 X123.073 Y193.739 E6.92898
G1 X122.137 Y193.686 E6.96016
G1 X121.209 Y193.553 E6.99134
G1 X120.295 Y193.341 E7.02255
G1 X119.402 Y193.053 E7.05375
G1 X118.538 Y192.689 E7.08494
G1 X117.707 Y192.253 E7.11615
G1 X116.917 Y191.748 E7.14733
G1 X116.173 Y191.178 E7.17851
G1 X115.749 Y190.805 E7.19729
G1 X115.597 Y190.664 E7.20419
G1 X115.381 Y190.457 E7.21414
G1 X115.106 Y190.187 E7.22695
G1 X111.824 Y186.904 E7.38135
G1 X111.353 Y186.417 E7.40389
G1 X110.73 Y185.716 E7.43508
G1 X110.17 Y184.964 E7.46626
G1 X109.675 Y184.167 E7.49747
G1 X109.25 Y183.331 E7.52866
G1 X108.898 Y182.462 E7.55985
G1 X108.621 Y181.566 E7.59104
G1 X108.422 Y180.649 E7.62225
G1 X108.301 Y179.719 E7.65344
G1 X108.266 Y179.141 E7.6727
G1 X108.256 Y178.756 E7.68551
G1 X108.25 Y178.213 E7.70357
G1 X108.251 Y134.509 E9.15717
G1 X108.261 Y133.844 E9.17929
G1 X108.315 Y132.907 E9.21051
G1 X108.449 Y131.979 E9.24169
G1 X108.661 Y131.065 E9.2729
G1 X108.95 Y130.173 E9.30409
G1 X109.315 Y129.309 E9.33528
G1 X109.751 Y128.479 E9.36647
G1 X110.257 Y127.689 E9.39767
G1 X110.828 Y126.945 E9.42886
G1 X111.46 Y126.252 E9.46006
G1 X112.149 Y125.616 E9.49124
G0 F6000 X112.538 Y125.813
G1 F1200 X113.274 Y125.261 E9.52184
G1 X114.056 Y124.774 E9.55248
G1 X114.877 Y124.358 E9.5831
G1 X115.731 Y124.014 E9.61372
G1 X116.611 Y123.745 E9.64432
G1 X117.512 Y123.554 E9.67496
G1 X118.685 Y123.425 E9.71421
G1 X119.018 Y123.407 E9.7253
G1 X121.242 Y123.31 E9.79934
G1 X123.776 Y123.128 E9.88384
G1 X126.292 Y122.874 E9.96795
G1 X128.811 Y122.549 E10.05242
G1 X131.272 Y122.161 E10.13529
G1 X132.213 Y121.985 E10.16713
G1 X133.219 Y121.812 E10.20108
G1 X134.132 Y121.696 E10.23169
G1 X134.712 Y121.663 E10.25101
G1 X135.031 Y121.654 E10.26163
G1 X135.33 Y121.65 E10.27157
G1 X143.043 Y121.65 E10.52811
G1 X143.899 Y121.661 E10.55658
G1 X144.193 Y121.669 E10.56636
G1 X145.182 Y121.712 E10.59929
G1 X146.26 Y121.773 E10.6352
G1 X148.795 Y121.844 E10.71955
G1 X151.306 Y121.842 E10.80306
G1 X153.894 Y121.768 E10.88917
G1 X155.221 Y121.702 E10.93337
G1 X155.646 Y121.677 E10.94753
G1 X155.962 Y121.663 E10.95805
G1 X156.28 Y121.654 E10.96863
G1 X156.58 Y121.65 E10.97861
G1 X164.445 Y121.651 E11.2402
G1 X165.142 Y121.661 E11.26338
G1 X166.061 Y121.714 E11.294
G1 X166.922 Y121.838 E11.32293
G1 X167.352 Y121.918 E11.33748
G1 X169.998 Y122.371 E11.42676
G1 X172.481 Y122.725 E11.51018
G1 X174.994 Y123.011 E11.59431
G1 X177.527 Y123.227 E11.67886
G1 X180.121 Y123.374 E11.76528
G1 X181.187 Y123.419 E11.80076
G1 X182.104 Y123.498 E11.83138
G1 X183.011 Y123.656 E11.862
G1 X183.901 Y123.892 E11.89262
G1 X184.767 Y124.204 E11.92324
G1 X185.603 Y124.591 E11.95388
G1 X186.402 Y125.048 E11.98449
G1 X187.158 Y125.573 E12.0151
G1 X187.866 Y126.162 E12.04574
G1 X188.52 Y126.81 E12.07636
G1 X189.116 Y127.512 E12.10699
G1 X189.648 Y128.263 E12.1376
G1 X190.113 Y129.058 E12.16823
G1 X190.507 Y129.889 E12.19882
G1 X190.828 Y130.752 E12.22944
G1 X191.073 Y131.64 E12.26008
G1 X191.239 Y132.545 E12.29068
G1 X191.337 Y133.712 E12.32964
G1 X191.346 Y134.032 E12.34028
G1 X191.35 Y134.33 E12.3502
G1 X191.349 Y178.219 E13.80995
G1 X191.339 Y178.921 E13.8333
G1 X191.286 Y179.84 E13.86392
G1 X191.153 Y180.751 E13.89454
G1 X190.942 Y181.647 E13.92515
G1 X190.654 Y182.522 E13.95579
G1 X190.291 Y183.368 E13.98641
G1 X189.856 Y184.179 E14.01702
G1 X189.352 Y184.95 E14.04766
G1 X188.511 Y185.979 E14.09186
G1 X188.37 Y186.131 E14.09875
G1 X188.176 Y186.335 E14.10812
G1 X187.995 Y186.52 E14.11673
G1 X184.643 Y189.871 E14.27437
G1 X184.149 Y190.35 E14.29726
G1 X183.461 Y190.962 E14.32788
G1 X182.722 Y191.511 E14.3585
G1 X181.939 Y191.995 E14.38912
G1 X181.116 Y192.408 E14.41975
G1 X180.261 Y192.749 E14.45036
G1 X179.379 Y193.014 E14.48099
G1 X178.478 Y193.202 E14.5116
G1 X177.128 Y193.334 E14.55672
G1 X176.752 Y193.344 E14.56923
G1 X176.213 Y193.35 E14.58716
G1 X170.455 Y193.349 E14.77867
G1 X169.756 Y193.339 E14.80192
G1 X168.837 Y193.286 E14.83254
G1 X167.972 Y193.162 E14.8616
G1 X166.6 Y192.906 E14.90802
G1 X166.242 Y192.835 E14.92016
G1 X163.782 Y192.415 E15.00317
G1 X161.256 Y192.057 E15.08802
G1 X158.768 Y191.777 E15.17129
G1 X156.206 Y191.561 E15.25681
G1 X153.723 Y191.422 E15.33952
G1 X151.178 Y191.352 E15.4242
G1 X148.665 Y191.354 E15.50778
G1 X146.121 Y191.428 E15.59243
G1 X143.581 Y191.573 E15.67705
G1 X141.083 Y191.788 E15.76044
G1 X138.552 Y192.078 E15.84518
G1 X136.072 Y192.432 E15.9285
G1 X133.549 Y192.867 E16.01365
G1 X132.113 Y193.146 E16.06231
G1 X131.203 Y193.282 E16.09291
G1 X130.388 Y193.337 E16.12008
G1 X130.069 Y193.346 E16.13069
G1 X129.77 Y193.35 E16.14064
G1 X123.781 Y193.349 E16.33983
G1 X123.079 Y193.339 E16.36318
G1 X122.16 Y193.286 E16.3938
G1 X121.249 Y193.153 E16.42442
G1 X120.353 Y192.942 E16.45504
G1 X119.478 Y192.654 E16.48568
G1 X118.632 Y192.291 E16.51629
G1 X117.821 Y191.856 E16.5469
G1 X117.05 Y191.352 E16.57754
G1 X116.021 Y190.511 E16.62174
G1 X115.869 Y190.37 E16.62864
G1 X115.661 Y190.172 E16.63819
G1 X115.389 Y189.905 E16.65087
G1 X112.237 Y186.754 E16.7991
G1 X111.641 Y186.139 E16.82759
G1 X111.03 Y185.45 E16.85822
G1 X110.481 Y184.711 E16.88884
G1 X109.999 Y183.927 E16.91945
G1 X109.586 Y183.104 E16.95007
G1 X109.247 Y182.248 E16.98069
G1 X108.983 Y181.366 E17.01131
G1 X108.796 Y180.464 E17.04195
G1 X108.666 Y179.128 E17.0866
G1 X108.656 Y178.752 E17.09911
G1 X108.65 Y178.213 E17.11704
G1 X108.651 Y134.515 E18.57044
G1 X108.661 Y133.85 E18.59256
G1 X108.715 Y132.931 E18.62318
G1 X108.848 Y132.02 E18.6538
G1 X109.06 Y131.124 E18.68442
G1 X109.349 Y130.249 E18.71507
G1 X109.713 Y129.404 E18.74567
G1 X110.148 Y128.593 E18.77628
G1 X110.653 Y127.822 E18.80694
G1 X111.222 Y127.099 E18.83754
G1 X111.852 Y126.427 E18.86818
G1 X112.538 Y125.813 E18.8988
G0 F6000 X112.925 Y126.014
G1 F1200 X113.657 Y125.485 E18.92883
G1 X114.433 Y125.023 E18.95887
G1 X115.247 Y124.632 E18.98891
G1 X116.092 Y124.313 E19.01895
G1 X116.962 Y124.071 E19.04898
G1 X117.85 Y123.907 E19.07902
G1 X118.707 Y123.824 E19.10766
G1 X119.036 Y123.807 E19.11861
G1 X121.252 Y123.71 E19.19239
G1 X123.809 Y123.526 E19.27765
G1 X126.347 Y123.271 E19.36249
G1 X128.853 Y122.948 E19.44653
G1 X131.376 Y122.549 E19.53149
G1 X132.435 Y122.352 E19.56732
G1 X133.286 Y122.206 E19.59604
G1 X134.182 Y122.093 E19.62607
G1 X134.723 Y122.063 E19.64409
G1 X135.042 Y122.054 E19.65471
G1 X135.33 Y122.05 E19.66429
G1 X143.043 Y122.05 E19.92082
G1 X143.893 Y122.061 E19.9491
G1 X144.177 Y122.069 E19.95855
G1 X145.16 Y122.111 E19.99127
G1 X146.262 Y122.173 E20.02798
G1 X148.784 Y122.244 E20.1119
G1 X151.318 Y122.242 E20.19618
G1 X153.924 Y122.167 E20.28289
G1 X155.171 Y122.105 E20.32442
G1 X155.669 Y122.076 E20.34101
G1 X155.973 Y122.063 E20.35113
G1 X156.291 Y122.054 E20.36171
G1 X156.58 Y122.05 E20.37132
G1 X164.439 Y122.051 E20.63271
G1 X165.136 Y122.061 E20.6559
G1 X166.038 Y122.114 E20.68595
G1 X166.849 Y122.231 E20.7132
G1 X167.349 Y122.324 E20.73012
G1 X169.916 Y122.764 E20.81674
G1 X172.446 Y123.124 E20.90174
G1 X174.951 Y123.41 E20.9856
G1 X177.471 Y123.624 E21.06971
G1 X180.149 Y123.776 E21.15893
G1 X181.17 Y123.819 E21.19292
G1 X182.07 Y123.897 E21.22296
G1 X182.959 Y124.054 E21.25299
G1 X183.831 Y124.289 E21.28303
G1 X184.679 Y124.601 E21.31308
G1 X185.496 Y124.986 E21.34312
G1 X186.275 Y125.442 E21.37314
G1 X187.011 Y125.965 E21.40317
G1 X187.698 Y126.551 E21.4332
G1 X188.331 Y127.196 E21.46326
G1 X188.904 Y127.894 E21.4933
G1 X189.413 Y128.64 E21.52334
G1 X189.854 Y129.428 E21.55337
G1 X190.224 Y130.252 E21.58341
G1 X190.519 Y131.106 E21.61346
G1 X190.737 Y131.982 E21.64349
G1 X190.878 Y132.874 E21.67353
G1 X190.937 Y133.723 E21.70183
G1 X190.946 Y134.043 E21.71248
G1 X190.95 Y134.33 E21.72203
G1 X190.949 Y178.213 E23.18158
G1 X190.939 Y178.915 E23.20493
G1 X190.886 Y179.817 E23.23498
G1 X190.754 Y180.71 E23.26501
G1 X190.543 Y181.588 E23.29504
G1 X190.255 Y182.444 E23.32508
G1 X189.893 Y183.272 E23.35514
G1 X189.459 Y184.064 E23.38517
G1 X188.956 Y184.814 E23.41521
G1 X188.218 Y185.707 E23.45374
G1 X188.077 Y185.859 E23.46064
G1 X187.89 Y186.055 E23.46965
G1 X187.709 Y186.24 E23.47826
G1 X184.364 Y189.584 E23.63557
G1 X183.87 Y190.063 E23.65846
G1 X183.195 Y190.662 E23.68847
G1 X182.469 Y191.199 E23.71851
G1 X181.698 Y191.67 E23.74856
G1 X180.889 Y192.071 E23.77859
G1 X180.048 Y192.399 E23.80861
G1 X179.18 Y192.651 E23.83867
G1 X178.294 Y192.825 E23.86871
G1 X177.114 Y192.934 E23.90812
G1 X176.747 Y192.944 E23.92033
G1 X176.213 Y192.95 E23.93809
G1 X170.461 Y192.949 E24.1294
G1 X169.762 Y192.939 E24.15266
G1 X168.861 Y192.886 E24.18268
G1 X168.045 Y192.769 E24.21009
G1 X166.679 Y192.514 E24.25631
G1 X166.323 Y192.443 E24.26839
G1 X163.829 Y192.018 E24.35253
G1 X161.325 Y191.663 E24.43665
G1 X158.779 Y191.376 E24.52186
G1 X156.261 Y191.164 E24.60591
G1 X153.72 Y191.022 E24.69056
G1 X151.189 Y190.952 E24.77477
G1 X148.654 Y190.954 E24.85908
G1 X146.085 Y191.028 E24.94456
G1 X143.595 Y191.171 E25.02752
G1 X141.036 Y191.391 E25.11295
G1 X138.486 Y191.683 E25.19831
G1 X136.018 Y192.036 E25.28123
G1 X133.456 Y192.477 E25.3677
G1 X132.037 Y192.753 E25.41578
G1 X131.143 Y192.886 E25.44584
G1 X130.377 Y192.937 E25.47138
G1 X130.058 Y192.946 E25.48199
G1 X129.77 Y192.95 E25.49157
G1 X123.787 Y192.949 E25.69057
G1 X123.085 Y192.939 E25.71392
G1 X122.183 Y192.886 E25.74397
G1 X121.29 Y192.754 E25.77399
G1 X120.412 Y192.543 E25.80403
G1 X119.556 Y192.255 E25.83407
G1 X118.728 Y191.893 E25.86412
G1 X117.936 Y191.459 E25.89416
G1 X117.186 Y190.956 E25.9242
G1 X116.293 Y190.218 E25.96273
G1 X116.141 Y190.077 E25.96962
G1 X115.941 Y189.886 E25.97882
G1 X115.672 Y189.622 E25.99136
G1 X112.399 Y186.348 E26.14533
G1 X111.928 Y185.861 E26.16787
G1 X111.33 Y185.185 E26.19788
G1 X110.793 Y184.458 E26.22795
G1 X110.323 Y183.687 E26.25798
G1 X109.923 Y182.877 E26.28803
G1 X109.597 Y182.035 E26.31806
G1 X109.346 Y181.168 E26.34808
G1 X109.173 Y180.281 E26.37813
G1 X109.066 Y179.114 E26.41711
G1 X109.056 Y178.747 E26.42932
G1 X109.05 Y178.213 E26.44708
G1 X109.051 Y134.521 E27.90029
G1 X109.061 Y133.856 E27.92241
G1 X109.115 Y132.954 E27.95246
G1 X109.248 Y132.061 E27.98249
G1 X109.459 Y131.183 E28.01252
G1 X109.748 Y130.327 E28.04257
G1 X110.111 Y129.5 E28.07261
G1 X110.545 Y128.709 E28.10262
G1 X111.048 Y127.958 E28.13268
G1 X111.616 Y127.256 E28.16272
G1 X112.243 Y126.606 E28.19276
G1 X112.925 Y126.014 E28.22279
G1 F2700 E23.22279
;MESH:otto-diy_ninja_innerplate.stl
G0 F6000 X123.665 Y160.114
G0 X121.83 Y160.114
G0 X122.572 Y164.928
G0 X128.428 Y166.072
G0 X129 Y177
;TYPE:WALL-INNER
G1 F2700 E28.22279
G1 F1200 X129 Y154 E28.98778
G1 X122 Y154 E29.2206
G1 X122 Y177 E29.98558
G1 X129 Y177 E30.2184
G0 F6000 X128.6 Y176.6
G1 F1200 X128.6 Y165.9 E30.57429
G1 X122.4 Y165.9 E30.7805
G1 X122.4 Y176.6 E31.13638
G1 X128.6 Y176.6 E31.34259
G0 F6000 X128.2 Y176.2
;TYPE:WALL-OUTER
G1 F1200 X128.2 Y166.3 E31.67187
G1 X122.8 Y166.3 E31.85147
G1 X122.8 Y176.2 E32.18075
G1 X128.2 Y176.2 E32.36035
G0 F6000 X128.5 Y176.2
G0 X128.6 Y165.1
;TYPE:WALL-INNER
G1 F1200 X128.6 Y154.4 E32.71624
G1 X122.4 Y154.4 E32.92245
G1 X122.4 Y165.1 E33.27833
G1 X128.6 Y165.1 E33.48455
