;FLAVOR:Marlin
;TIME:13004
;Filament used: 7.66199m
;Layer height: 0.2
;MINX:75.15
;MINY:116.01
;MINZ:0.2
;MAXX:181.75
;MAXY:198.99
;MAXZ:30.4
;Generated with Cura_SteamEngine 4.13.0
M82 ;absolute extrusion mode
; START OF PREHEAT AND HOMEING SEQUENCE
M107 ;Turn off part cooling blowers
M140 S50 ;Start heating bed
M104 S200 ;Start heating extruder

; Home and move to center of the bed
G1 Z2.0 F3000; Move Z Axis up to prevent scratching bed
G28 ;Home
M420 S1 Z2 ; Use ABL to center on the bed
G1 Z62.0 F1000; Move Z Axis up to manual addjust steppers
M190 S50 ;Wait for bed to reach temp before proceeding
M109 S200 ;Wait for extruder to reach temp before proceeding
G28 ;Home and reset leveling
; END OF PREHEAT AND HOMEING SEQUENCE

M201 X500.00 Y500.00 Z100.00 E5000.00 ;Setup machine max acceleration
M203 X500.00 Y500.00 Z10.00 E50.00 ;Setup machine max feedrate
M204 P500.00 R1000.00 T500.00 ;Setup Print/Retract/Travel acceleration
M205 X8.00 Y8.00 Z0.40 E5.00 ;Setup Jerk
M220 S100 ;Reset Feedrate
M221 S100 ;Reset Flowrate
M420 S1 Z2 ;Enable ABL using saved Mesh and Fade Height

G92 E0 ;Reset Extruder
G1 Z2.0 F3000 ;Move Z Axis up
G1 X10.1 Y20 Z0.28 F5000.0 ;Move to start position
G1 X10.1 Y200.0 Z0.28 F1500.0 E15 ;Draw the first line
G1 X10.4 Y200.0 Z0.28 F5000.0 ;Move to side a little
G1 X10.4 Y20 Z0.28 F1500.0 E30 ;Draw the second line
G92 E0 ;Reset Extruder
G1 Z2.0 F3000 ;Move Z Axis up
G92 E0
G92 E0
G1 F2700 E-5
;LAYER_COUNT:152
;LAYER:0
M107
G0 F6000 X81.212 Y131.419 Z0.2
;TYPE:SKIRT
G1 F2700 E0
G1 F1200 X82.008 Y130.924 E0.03118
G1 X82.845 Y130.499 E0.0624
G1 X83.714 Y130.147 E0.09358
G1 X84.61 Y129.87 E0.12478
G1 X85.467 Y129.681 E0.15396
G1 X86.658 Y129.469 E0.1942
G1 X87.246 Y129.372 E0.21402
G1 X89.701 Y128.895 E0.2972
G1 X92.147 Y128.348 E0.38057
G1 X94.607 Y127.724 E0.46498
G1 X97.018 Y127.041 E0.54832
G1 X99.437 Y126.28 E0.63267
G1 X101.839 Y125.448 E0.71721
G1 X104.121 Y124.586 E0.79835
G1 X106.477 Y123.619 E0.88305
G1 X108.788 Y122.592 E0.96716
G1 X111.094 Y121.489 E1.05218
G1 X113.282 Y120.364 E1.13401
G1 X115.508 Y119.141 E1.21849
G1 X117.187 Y118.163 E1.28312
G1 X117.517 Y117.967 E1.29588
G1 X118.326 Y117.53 E1.32646
G1 X118.628 Y117.383 E1.33764
G1 X118.926 Y117.244 E1.34857
G1 X119.097 Y117.167 E1.35481
G1 X119.967 Y116.819 E1.38598
G1 X120.63 Y116.609 E1.40911
G1 X120.992 Y116.507 E1.42162
G1 X121.343 Y116.414 E1.43369
G1 X122.26 Y116.217 E1.46489
G1 X122.986 Y116.118 E1.48926
G1 X123.328 Y116.083 E1.50069
G1 X123.639 Y116.056 E1.51108
G1 X123.856 Y116.04 E1.51831
G1 X124.735 Y116.01 E1.54757
G1 X125.104 Y116.015 E1.55984
G1 X127.424 Y116.075 E1.63703
G1 X129.973 Y116.066 E1.72181
G1 X131.315 Y116.025 E1.76647
G1 X132.013 Y116.013 E1.78968
G1 X132.98 Y116.039 E1.82186
G1 X133.417 Y116.07 E1.83643
G1 X133.835 Y116.107 E1.85039
G1 X134.763 Y116.239 E1.88156
G1 X135.458 Y116.392 E1.90523
G1 X136.036 Y116.54 E1.92508
G1 X136.138 Y116.568 E1.92859
G1 X137.031 Y116.855 E1.95979
G1 X137.725 Y117.138 E1.98472
G1 X138.14 Y117.324 E1.99985
G1 X138.521 Y117.503 E2.01385
G1 X139.404 Y117.979 E2.04721
G1 X139.646 Y118.124 E2.05659
G1 X141.89 Y119.423 E2.14283
G1 X144.123 Y120.633 E2.22731
G1 X146.358 Y121.763 E2.3106
G1 X148.616 Y122.825 E2.3936
G1 X150.935 Y123.838 E2.47776
G1 X153.314 Y124.8 E2.56312
G1 X155.624 Y125.654 E2.64503
G1 X158.031 Y126.469 E2.72955
G1 X160.415 Y127.203 E2.81252
G1 X162.853 Y127.878 E2.89665
G1 X165.3 Y128.483 E2.98049
G1 X167.765 Y129.018 E3.06439
G1 X170.263 Y129.485 E3.14891
G1 X171.142 Y129.63 E3.17854
G1 X171.504 Y129.695 E3.19077
G1 X172.417 Y129.905 E3.22193
G1 X173.31 Y130.193 E3.25314
G1 X174.175 Y130.555 E3.28433
G1 X175.006 Y130.99 E3.31553
G1 X175.797 Y131.494 E3.34672
G1 X176.542 Y132.064 E3.37792
G1 X176.976 Y132.445 E3.39713
G1 X177.128 Y132.586 E3.40402
G1 X177.329 Y132.777 E3.41325
G1 X177.58 Y133.024 E3.42496
G1 X178.141 Y133.585 E3.45135
G1 X178.617 Y134.075 E3.47407
G1 X179.241 Y134.775 E3.50526
G1 X179.804 Y135.526 E3.53648
G1 X180.3 Y136.322 E3.56767
G1 X180.727 Y137.157 E3.59886
G1 X181.081 Y138.025 E3.63004
G1 X181.36 Y138.921 E3.66125
G1 X181.561 Y139.837 E3.69245
G1 X181.661 Y140.533 E3.71583
G1 X181.679 Y140.696 E3.72129
G1 X181.744 Y141.769 E3.75704
G1 X181.75 Y142.312 E3.7751
G1 X181.749 Y181.575 E5.08099
G1 X181.739 Y182.277 E5.10434
G1 X181.686 Y183.213 E5.13553
G1 X181.553 Y184.141 E5.16671
G1 X181.341 Y185.055 E5.19791
G1 X181.053 Y185.948 E5.22912
G1 X180.689 Y186.812 E5.2603
G1 X180.253 Y187.643 E5.29152
G1 X179.748 Y188.433 E5.3227
G1 X179.178 Y189.177 E5.35388
G1 X178.805 Y189.601 E5.37266
G1 X178.664 Y189.753 E5.37955
G1 X178.314 Y190.116 E5.39632
G1 X177.767 Y190.664 E5.42208
G1 X177.152 Y191.262 E5.45061
G1 X176.452 Y191.886 E5.4818
G1 X175.701 Y192.447 E5.51298
G1 X174.904 Y192.943 E5.5442
G1 X174.069 Y193.369 E5.57538
G1 X173.2 Y193.722 E5.60657
G1 X172.304 Y194 E5.63778
G1 X171.388 Y194.201 E5.66897
G1 X170.458 Y194.323 E5.70016
G1 X169.866 Y194.359 E5.71989
G1 X169.481 Y194.369 E5.7327
G1 X168.938 Y194.375 E5.75076
G1 X168.054 Y194.374 E5.78016
G1 X167.337 Y194.364 E5.80401
G1 X167.012 Y194.355 E5.81483
G1 X166.873 Y194.349 E5.81945
G1 X164.362 Y194.277 E5.903
G1 X161.838 Y194.277 E5.98695
G1 X159.287 Y194.348 E6.07183
G1 X156.826 Y194.488 E6.15382
G1 X154.284 Y194.703 E6.23867
G1 X151.784 Y194.987 E6.32235
G1 X149.28 Y195.344 E6.40648
G1 X146.813 Y195.766 E6.48972
G1 X144.398 Y196.249 E6.57164
G1 X141.864 Y196.832 E6.65812
G1 X139.496 Y197.449 E6.73951
G1 X137.655 Y197.995 E6.80338
G1 X135.938 Y198.484 E6.86276
G1 X135.557 Y198.586 E6.87587
G1 X134.64 Y198.783 E6.90707
G1 X133.914 Y198.882 E6.93144
G1 X133.572 Y198.917 E6.94287
G1 X133.296 Y198.942 E6.95209
G1 X133.088 Y198.958 E6.95903
G1 X132.178 Y198.99 E6.98932
G1 X131.796 Y198.985 E7.00202
G1 X129.476 Y198.925 E7.07921
G1 X126.927 Y198.934 E7.16399
G1 X125.585 Y198.975 E7.20865
G1 X124.887 Y198.987 E7.23187
G1 X123.92 Y198.961 E7.26404
G1 X123.483 Y198.93 E7.27861
G1 X123.065 Y198.893 E7.29257
G1 X122.137 Y198.761 E7.32375
G1 X121.442 Y198.608 E7.34741
G1 X121.068 Y198.513 E7.36025
G1 X120.786 Y198.438 E7.36995
G1 X120.373 Y198.32 E7.38424
G1 X118.033 Y197.623 E7.46545
G1 X115.628 Y196.979 E7.54826
G1 X113.153 Y196.392 E7.63286
G1 X110.661 Y195.873 E7.71752
G1 X108.24 Y195.444 E7.7993
G1 X105.736 Y195.071 E7.8835
G1 X103.213 Y194.766 E7.96803
G1 X100.728 Y194.539 E8.05102
G1 X98.2 Y194.378 E8.13528
G1 X95.713 Y194.291 E8.21804
G1 X93.153 Y194.274 E8.30319
G1 X90.601 Y194.329 E8.38809
G1 X89.634 Y194.363 E8.42027
G1 X89.381 Y194.369 E8.42869
G1 X88.838 Y194.375 E8.44675
G1 X87.951 Y194.374 E8.47625
G1 X87.248 Y194.364 E8.49964
G1 X86.311 Y194.311 E8.53085
G1 X85.383 Y194.178 E8.56203
G1 X84.469 Y193.966 E8.59324
G1 X83.577 Y193.678 E8.62442
G1 X82.712 Y193.314 E8.65563
G1 X81.882 Y192.878 E8.68681
G1 X81.091 Y192.373 E8.71803
G1 X80.347 Y191.803 E8.7492
G1 X79.897 Y191.405 E8.76918
G1 X79.746 Y191.264 E8.77605
G1 X79.556 Y191.082 E8.7848
G1 X79.28 Y190.811 E8.79767
G1 X78.721 Y190.25 E8.82401
G1 X78.259 Y189.773 E8.8461
G1 X77.635 Y189.072 E8.87731
G1 X77.074 Y188.321 E8.90849
G1 X76.579 Y187.524 E8.93969
G1 X76.153 Y186.688 E8.9709
G1 X75.801 Y185.819 E9.00208
G1 X75.523 Y184.923 E9.03329
G1 X75.323 Y184.007 E9.06447
G1 X75.202 Y183.077 E9.09566
G1 X75.166 Y182.491 E9.11519
G1 X75.156 Y182.106 E9.128
G1 X75.15 Y181.563 E9.14606
G1 X75.151 Y142.3 E10.45195
G1 X75.161 Y141.598 E10.47531
G1 X75.214 Y140.662 E10.50649
G1 X75.347 Y139.734 E10.53767
G1 X75.559 Y138.82 E10.56887
G1 X75.847 Y137.927 E10.60008
G1 X76.211 Y137.063 E10.63127
G1 X76.647 Y136.232 E10.66248
G1 X77.152 Y135.442 E10.69366
G1 X77.722 Y134.698 E10.72484
G1 X78.095 Y134.274 E10.74362
G1 X78.236 Y134.122 E10.75051
G1 X78.443 Y133.906 E10.76046
G1 X78.705 Y133.639 E10.77291
G1 X79.271 Y133.074 E10.79951
G1 X79.759 Y132.602 E10.82209
G1 X80.46 Y131.98 E10.85326
G1 X81.212 Y131.419 E10.88446
G0 F6000 X81.465 Y131.73
G1 F1200 X82.249 Y131.248 E10.91507
G1 X83.072 Y130.835 E10.9457
G1 X83.928 Y130.496 E10.97632
G1 X84.81 Y130.232 E11.00694
G1 X85.537 Y130.075 E11.03168
G1 X86.724 Y129.864 E11.07178
G1 X87.282 Y129.772 E11.09059
G1 X89.786 Y129.286 E11.17543
G1 X92.269 Y128.731 E11.26005
G1 X94.7 Y128.113 E11.34348
G1 X97.151 Y127.419 E11.4282
G1 X99.541 Y126.667 E11.51153
G1 X101.963 Y125.829 E11.59678
G1 X104.278 Y124.954 E11.67909
G1 X106.642 Y123.983 E11.76409
G1 X108.958 Y122.955 E11.84837
G1 X111.228 Y121.868 E11.93208
G1 X113.494 Y120.704 E12.01681
G1 X115.739 Y119.47 E12.10201
G1 X117.312 Y118.554 E12.16256
G1 X117.722 Y118.31 E12.17843
G1 X118.501 Y117.89 E12.20786
G1 X118.803 Y117.743 E12.21903
G1 X119.09 Y117.609 E12.22957
G1 X119.261 Y117.532 E12.2358
G1 X120.116 Y117.19 E12.26643
G1 X120.738 Y116.994 E12.28812
G1 X121.1 Y116.892 E12.30063
G1 X121.443 Y116.801 E12.31243
G1 X122.343 Y116.609 E12.34304
G1 X123.027 Y116.516 E12.366
G1 X123.369 Y116.481 E12.37744
G1 X123.669 Y116.455 E12.38745
G1 X123.886 Y116.439 E12.39469
G1 X124.733 Y116.41 E12.42288
G1 X125.094 Y116.414 E12.43488
G1 X127.45 Y116.474 E12.51327
G1 X129.952 Y116.467 E12.59649
G1 X131.169 Y116.428 E12.63699
G1 X132.02 Y116.413 E12.66529
G1 X132.952 Y116.438 E12.6963
G1 X133.389 Y116.469 E12.71088
G1 X133.795 Y116.505 E12.72443
G1 X134.707 Y116.635 E12.75507
G1 X135.36 Y116.779 E12.77731
G1 X135.93 Y116.926 E12.79689
G1 X136.032 Y116.954 E12.80041
G1 X136.908 Y117.236 E12.83102
G1 X137.561 Y117.503 E12.85448
G1 X137.976 Y117.689 E12.86961
G1 X138.347 Y117.863 E12.88324
G1 X139.199 Y118.322 E12.91543
G1 X139.474 Y118.487 E12.92609
G1 X141.691 Y119.77 E13.01129
G1 X143.931 Y120.984 E13.09603
G1 X146.186 Y122.124 E13.18007
G1 X148.464 Y123.196 E13.26381
G1 X150.773 Y124.205 E13.34762
G1 X153.162 Y125.17 E13.43331
G1 X155.494 Y126.032 E13.516
G1 X157.901 Y126.847 E13.60053
G1 X160.328 Y127.595 E13.68499
G1 X162.722 Y128.258 E13.76762
G1 X165.225 Y128.876 E13.85337
G1 X167.678 Y129.409 E13.93686
G1 X170.212 Y129.883 E14.0226
G1 X171.077 Y130.025 E14.05176
G1 X171.43 Y130.088 E14.06368
G1 X172.327 Y130.295 E14.0943
G1 X173.203 Y130.58 E14.12494
G1 X174.051 Y130.939 E14.15557
G1 X174.864 Y131.37 E14.18617
G1 X175.637 Y131.871 E14.21681
G1 X176.704 Y132.739 E14.26256
G1 X176.856 Y132.88 E14.26945
G1 X177.049 Y133.064 E14.27832
G1 X177.298 Y133.307 E14.2899
G1 X177.854 Y133.864 E14.31607
G1 X178.33 Y134.354 E14.33879
G1 X178.942 Y135.042 E14.36942
G1 X179.493 Y135.78 E14.40005
G1 X179.977 Y136.563 E14.43067
G1 X180.391 Y137.385 E14.46128
G1 X180.733 Y138.24 E14.49191
G1 X180.998 Y139.121 E14.52251
G1 X181.187 Y140.023 E14.55316
G1 X181.263 Y140.577 E14.57176
G1 X181.281 Y140.74 E14.57721
G1 X181.344 Y141.773 E14.61163
G1 X181.35 Y142.312 E14.62956
G1 X181.349 Y181.569 E15.93526
G1 X181.339 Y182.271 E15.95861
G1 X181.286 Y183.19 E15.98922
G1 X181.153 Y184.101 E16.01984
G1 X180.942 Y184.997 E16.05046
G1 X180.654 Y185.872 E16.0811
G1 X180.291 Y186.718 E16.11172
G1 X179.856 Y187.529 E16.14233
G1 X179.352 Y188.3 E16.17296
G1 X178.511 Y189.329 E16.21716
G1 X178.187 Y189.674 E16.23291
G1 X178.028 Y189.837 E16.24048
G1 X177.368 Y190.496 E16.2715
G1 X176.874 Y190.975 E16.29439
G1 X176.186 Y191.587 E16.32501
G1 X175.447 Y192.136 E16.35563
G1 X174.664 Y192.62 E16.38625
G1 X173.841 Y193.033 E16.41688
G1 X172.986 Y193.374 E16.44749
G1 X172.104 Y193.639 E16.47812
G1 X171.203 Y193.827 E16.50873
G1 X169.853 Y193.959 E16.55385
G1 X169.477 Y193.969 E16.56636
G1 X168.938 Y193.975 E16.58429
G1 X168.059 Y193.974 E16.61352
G1 X167.342 Y193.964 E16.63737
G1 X164.338 Y193.877 E16.73733
G1 X161.827 Y193.877 E16.82085
G1 X159.289 Y193.948 E16.90529
G1 X156.768 Y194.091 E16.98928
G1 X154.241 Y194.305 E17.07363
G1 X151.749 Y194.588 E17.15704
G1 X149.233 Y194.946 E17.24157
G1 X146.739 Y195.373 E17.32573
G1 X144.295 Y195.862 E17.40862
G1 X141.787 Y196.439 E17.49422
G1 X139.392 Y197.063 E17.57654
G1 X137.545 Y197.611 E17.64062
G1 X135.828 Y198.1 E17.69999
G1 X135.457 Y198.199 E17.71277
G1 X134.557 Y198.391 E17.74337
G1 X133.873 Y198.484 E17.76633
G1 X133.531 Y198.519 E17.77777
G1 X133.265 Y198.543 E17.78665
G1 X133.057 Y198.559 E17.79359
G1 X132.18 Y198.59 E17.82278
G1 X131.806 Y198.586 E17.83522
G1 X129.45 Y198.526 E17.9136
G1 X126.948 Y198.533 E17.99682
G1 X125.731 Y198.572 E18.03732
G1 X124.88 Y198.587 E18.06563
G1 X123.948 Y198.562 E18.09664
G1 X123.511 Y198.531 E18.11121
G1 X123.105 Y198.495 E18.12476
G1 X122.193 Y198.365 E18.1554
G1 X121.54 Y198.221 E18.17764
G1 X121.166 Y198.126 E18.19048
G1 X120.895 Y198.053 E18.19981
G1 X120.487 Y197.937 E18.21392
G1 X118.145 Y197.239 E18.2952
G1 X115.71 Y196.588 E18.37904
G1 X113.228 Y195.999 E18.46388
G1 X110.74 Y195.48 E18.54841
G1 X108.297 Y195.048 E18.63093
G1 X105.807 Y194.677 E18.71466
G1 X103.261 Y194.369 E18.79996
G1 X100.757 Y194.14 E18.88359
G1 X98.238 Y193.98 E18.96754
G1 X95.695 Y193.891 E19.05217
G1 X93.183 Y193.874 E19.13572
G1 X90.504 Y193.932 E19.22485
G1 X89.62 Y193.963 E19.25427
G1 X89.376 Y193.969 E19.26239
G1 X88.838 Y193.975 E19.28028
G1 X87.956 Y193.974 E19.30962
G1 X87.253 Y193.964 E19.333
G1 X86.334 Y193.911 E19.36362
G1 X85.423 Y193.778 E19.39424
G1 X84.527 Y193.567 E19.42485
G1 X83.653 Y193.279 E19.45546
G1 X82.806 Y192.916 E19.48611
G1 X81.995 Y192.481 E19.51672
G1 X81.224 Y191.977 E19.54736
G1 X80.17 Y191.112 E19.59271
G1 X79.836 Y190.797 E19.60798
G1 X79.641 Y190.606 E19.61706
G1 X79.008 Y189.972 E19.64685
G1 X78.546 Y189.495 E19.66894
G1 X77.935 Y188.806 E19.69957
G1 X77.386 Y188.067 E19.73019
G1 X76.903 Y187.283 E19.76082
G1 X76.489 Y186.461 E19.79143
G1 X76.149 Y185.605 E19.82206
G1 X75.885 Y184.723 E19.85268
G1 X75.698 Y183.822 E19.88329
G1 X75.566 Y182.478 E19.92821
G1 X75.556 Y182.102 E19.94072
G1 X75.55 Y181.563 E19.95864
G1 X75.551 Y142.306 E21.26434
G1 X75.561 Y141.604 E21.28769
G1 X75.614 Y140.685 E21.31831
G1 X75.747 Y139.774 E21.34893
G1 X75.958 Y138.878 E21.37954
G1 X76.246 Y138.003 E21.41018
G1 X76.609 Y137.157 E21.4408
G1 X77.044 Y136.346 E21.47141
G1 X77.548 Y135.575 E21.50205
G1 X78.389 Y134.546 E21.54625
G1 X78.53 Y134.394 E21.55314
G1 X78.728 Y134.186 E21.56269
G1 X78.988 Y133.921 E21.57504
G1 X79.414 Y133.494 E21.5951
G1 X80.037 Y132.89 E21.62396
G1 X80.726 Y132.279 E21.65459
G1 X81.465 Y131.73 E21.68521
G0 F6000 X81.718 Y132.042
G1 F1200 X82.489 Y131.573 E21.71523
G1 X83.299 Y131.173 E21.74528
G1 X84.14 Y130.846 E21.77529
G1 X85.008 Y130.595 E21.80534
G1 X85.608 Y130.469 E21.82573
G1 X86.789 Y130.258 E21.86563
G1 X87.386 Y130.159 E21.88576
G1 X89.885 Y129.674 E21.97043
G1 X92.342 Y129.125 E22.05416
G1 X94.802 Y128.5 E22.13858
G1 X97.243 Y127.809 E22.22296
G1 X99.687 Y127.04 E22.30818
G1 X102.087 Y126.209 E22.39265
G1 X104.422 Y125.327 E22.47567
G1 X106.833 Y124.337 E22.56236
G1 X109.114 Y123.323 E22.64538
G1 X111.405 Y122.228 E22.72984
G1 X113.69 Y121.053 E22.8153
G1 X115.921 Y119.827 E22.89997
G1 X117.509 Y118.902 E22.96109
G1 X117.926 Y118.654 E22.97723
G1 X118.676 Y118.25 E23.00556
G1 X118.978 Y118.103 E23.01673
G1 X119.254 Y117.973 E23.02688
G1 X119.425 Y117.896 E23.03312
G1 X120.264 Y117.562 E23.06315
G1 X120.847 Y117.379 E23.08348
G1 X121.209 Y117.277 E23.09598
G1 X121.544 Y117.188 E23.10751
G1 X122.427 Y117 E23.13754
G1 X123.068 Y116.914 E23.15905
G1 X123.41 Y116.879 E23.17049
G1 X123.698 Y116.854 E23.1801
G1 X123.915 Y116.838 E23.18734
G1 X124.73 Y116.81 E23.21446
G1 X125.084 Y116.814 E23.22624
G1 X127.442 Y116.874 E23.30469
G1 X129.965 Y116.866 E23.3886
G1 X131.181 Y116.828 E23.42907
G1 X132.027 Y116.813 E23.45721
G1 X132.924 Y116.837 E23.48706
G1 X133.361 Y116.868 E23.50163
G1 X133.756 Y116.903 E23.51482
G1 X134.65 Y117.031 E23.54485
G1 X135.261 Y117.167 E23.56567
G1 X135.824 Y117.312 E23.58501
G1 X135.926 Y117.34 E23.58853
G1 X136.786 Y117.617 E23.61858
G1 X137.398 Y117.868 E23.64058
G1 X137.813 Y118.054 E23.6557
G1 X138.174 Y118.224 E23.66898
G1 X138.993 Y118.665 E23.69991
G1 X139.245 Y118.816 E23.70969
G1 X141.521 Y120.133 E23.79715
G1 X143.738 Y121.335 E23.88102
G1 X146.014 Y122.486 E23.96585
G1 X148.299 Y123.561 E24.04984
G1 X150.612 Y124.571 E24.13379
G1 X153.01 Y125.54 E24.21981
G1 X155.375 Y126.414 E24.30367
G1 X157.749 Y127.219 E24.38705
