;FLAVOR:Marlin
;TIME:7709
;Filament used: 5.01489m
;Layer height: 0.2
;MINX:111.399
;MINY:118.9
;MINZ:0.2
;MAXX:188.601
;MAXY:196.1
;MAXZ:17
;Generated with Cura_SteamEngine 4.13.0
M82 ;absolute extrusion mode
; START OF PREHEAT AND HOMEING SEQUENCE
M107 ;Turn off part cooling blowers
M140 S50 ;Start heating bed
M104 S200 ;Start heating extruder

; Home and move to center of the bed
G1 Z2.0 F3000; Move Z Axis up to prevent scratching bed
G28 ;Home
M420 S1 Z2 ; Use ABL to center on the bed
G1 Z62.0 F1000; Move Z Axis up to manual addjust steppers
M190 S50 ;Wait for bed to reach temp before proceeding
M109 S200 ;Wait for extruder to reach temp before proceeding
G28 ;Home and reset leveling
; END OF PREHEAT AND HOMEING SEQUENCE

M201 X500.00 Y500.00 Z100.00 E5000.00 ;Setup machine max acceleration
M203 X500.00 Y500.00 Z10.00 E50.00 ;Setup machine max feedrate
M204 P500.00 R1000.00 T500.00 ;Setup Print/Retract/Travel acceleration
M205 X8.00 Y8.00 Z0.40 E5.00 ;Setup Jerk
M220 S100 ;Reset Feedrate
M221 S100 ;Reset Flowrate
M420 S1 Z2 ;Enable ABL using saved Mesh and Fade Height

G92 E0 ;Reset Extruder
G1 Z2.0 F3000 ;Move Z Axis up
G1 X10.1 Y20 Z0.28 F5000.0 ;Move to start position
G1 X10.1 Y200.0 Z0.28 F1500.0 E15 ;Draw the first line
G1 X10.4 Y200.0 Z0.28 F5000.0 ;Move to side a little
G1 X10.4 Y20 Z0.28 F1500.0 E30 ;Draw the second line
G92 E0 ;Reset Extruder
G1 Z2.0 F3000 ;Move Z Axis up
G92 E0
G92 E0
G1 F2700 E-5
;LAYER_COUNT:85
;LAYER:0
M107
G0 F6000 X119.362 Y122.482 Z0.2
;TYPE:SKIRT
G1 F2700 E0
G1 F1200 X119.848 Y122.011 E0.02251
G1 X120.548 Y121.387 E0.0537
G1 X121.3 Y120.826 E0.0849
G1 X122.096 Y120.331 E0.11608
G1 X122.932 Y119.905 E0.14729
G1 X123.801 Y119.552 E0.17849
G1 X124.696 Y119.274 E0.20966
G1 X125.613 Y119.074 E0.24087
G1 X126.542 Y118.952 E0.27204
G1 X127.134 Y118.916 E0.29176
G1 X127.518 Y118.906 E0.30454
G1 X128.061 Y118.9 E0.3226
G1 X171.794 Y118.9 E1.77717
G1 X172.653 Y118.911 E1.80574
G1 X173.589 Y118.964 E1.83692
G1 X174.517 Y119.097 E1.8681
G1 X175.431 Y119.309 E1.89931
G1 X176.324 Y119.597 E1.93052
G1 X177.188 Y119.961 E1.9617
G1 X178.019 Y120.397 E1.99291
G1 X178.809 Y120.902 E2.0241
G1 X179.553 Y121.472 E2.05527
G1 X179.993 Y121.86 E2.07478
G1 X180.124 Y121.982 E2.08073
G1 X180.31 Y122.16 E2.0893
G1 X180.654 Y122.497 E2.10531
G1 X185.006 Y126.849 E2.31002
G1 X185.482 Y127.339 E2.33274
G1 X186.106 Y128.039 E2.36393
G1 X186.669 Y128.79 E2.39515
G1 X187.165 Y129.586 E2.42634
G1 X187.592 Y130.421 E2.45753
G1 X187.946 Y131.289 E2.48871
G1 X188.225 Y132.185 E2.51993
G1 X188.426 Y133.101 E2.55112
G1 X188.549 Y134.031 E2.58232
G1 X188.587 Y134.683 E2.60404
G1 X188.595 Y135.008 E2.61485
G1 X188.601 Y135.553 E2.63298
G1 X188.599 Y179.452 E4.09307
G1 X188.589 Y180.153 E4.11639
G1 X188.536 Y181.089 E4.14757
G1 X188.403 Y182.018 E4.17878
G1 X188.191 Y182.931 E4.20996
G1 X187.903 Y183.824 E4.24116
G1 X187.539 Y184.688 E4.27235
G1 X187.103 Y185.519 E4.30356
G1 X186.598 Y186.309 E4.33474
G1 X186.028 Y187.053 E4.36592
G1 X185.668 Y187.463 E4.38406
G1 X185.558 Y187.582 E4.38945
G1 X185.347 Y187.803 E4.39962
G1 X185.002 Y188.155 E4.41601
G1 X180.648 Y192.508 E4.62078
G1 X180.154 Y192.987 E4.64367
G1 X179.454 Y193.611 E4.67486
G1 X178.703 Y194.172 E4.70604
G1 X177.906 Y194.668 E4.73726
G1 X177.071 Y195.094 E4.76844
G1 X176.202 Y195.447 E4.79964
G1 X175.306 Y195.725 E4.83084
G1 X174.39 Y195.926 E4.86203
G1 X173.46 Y196.048 E4.89323
G1 X172.866 Y196.084 E4.91302
G1 X172.482 Y196.094 E4.9258
G1 X171.938 Y196.1 E4.94389
G1 X127.999 Y196.1 E6.40531
G1 X127.348 Y196.09 E6.42696
G1 X126.412 Y196.035 E6.45815
G1 X125.483 Y195.901 E6.48937
G1 X124.57 Y195.689 E6.52054
G1 X123.486 Y195.326 E6.55856
G1 X122.628 Y194.947 E6.58976
G1 X121.805 Y194.497 E6.62096
G1 X121.024 Y193.978 E6.65215
G1 X119.977 Y193.113 E6.69732
G1 X119.805 Y192.952 E6.70515
G1 X119.546 Y192.702 E6.71713
G1 X115.108 Y188.267 E6.9258
G1 X114.519 Y187.661 E6.95391
G1 X113.894 Y186.961 E6.98512
G1 X113.332 Y186.211 E7.0163
G1 X112.836 Y185.415 E7.04749
G1 X112.409 Y184.58 E7.07868
G1 X112.055 Y183.711 E7.10989
G1 X111.776 Y182.816 E7.14107
G1 X111.575 Y181.9 E7.17226
G1 X111.452 Y180.97 E7.20346
G1 X111.416 Y180.395 E7.22263
G1 X111.405 Y179.992 E7.23604
G1 X111.399 Y179.447 E7.25416
G1 X111.401 Y135.548 E8.71425
G1 X111.411 Y134.847 E8.73757
G1 X111.464 Y133.911 E8.76875
G1 X111.597 Y132.982 E8.79996
G1 X111.809 Y132.069 E8.83114
G1 X112.097 Y131.176 E8.86234
G1 X112.461 Y130.312 E8.89353
G1 X112.897 Y129.481 E8.92474
G1 X113.402 Y128.691 E8.95593
G1 X113.972 Y127.947 E8.9871
G1 X114.332 Y127.537 E9.00525
G1 X114.442 Y127.418 E9.01064
G1 X114.653 Y127.197 E9.0208
G1 X114.998 Y126.845 E9.03719
G1 X119.362 Y122.482 E9.24244
G0 F6000 X119.64 Y122.769
G1 F1200 X120.126 Y122.298 E9.26495
G1 X120.814 Y121.687 E9.29555
G1 X121.553 Y121.137 E9.32619
G1 X122.337 Y120.654 E9.35682
G1 X123.159 Y120.241 E9.38741
G1 X124.015 Y119.9 E9.41806
G1 X124.897 Y119.635 E9.44869
G1 X125.798 Y119.448 E9.4793
G1 X127.147 Y119.316 E9.52438
G1 X127.522 Y119.306 E9.53686
G1 X128.061 Y119.3 E9.55479
G1 X171.794 Y119.3 E11.00935
G1 X172.647 Y119.311 E11.03772
G1 X173.566 Y119.364 E11.06834
G1 X174.477 Y119.497 E11.09896
G1 X175.373 Y119.708 E11.12958
G1 X176.248 Y119.996 E11.16022
G1 X177.094 Y120.359 E11.19084
G1 X177.905 Y120.794 E11.22145
G1 X178.676 Y121.298 E11.25208
G1 X179.72 Y122.153 E11.29696
G1 X180.031 Y122.446 E11.31118
G1 X180.371 Y122.78 E11.32703
G1 X184.719 Y127.128 E11.53154
G1 X185.195 Y127.618 E11.55427
G1 X185.807 Y128.306 E11.58489
G1 X186.358 Y129.044 E11.61552
G1 X186.842 Y129.827 E11.64614
G1 X187.256 Y130.649 E11.67675
G1 X187.598 Y131.504 E11.70738
G1 X187.863 Y132.385 E11.73798
G1 X188.052 Y133.287 E11.76863
G1 X188.162 Y134.201 E11.79925
G1 X188.187 Y134.695 E11.8157
G1 X188.195 Y135.012 E11.82625
G1 X188.201 Y135.553 E11.84424
G1 X188.199 Y179.446 E13.30413
G1 X188.189 Y180.147 E13.32745
G1 X188.136 Y181.066 E13.35807
G1 X188.003 Y181.977 E13.38869
G1 X187.792 Y182.873 E13.4193
G1 X187.504 Y183.748 E13.44994
G1 X187.141 Y184.594 E13.48056
G1 X186.706 Y185.405 E13.51117
G1 X186.202 Y186.176 E13.54181
G1 X185.374 Y187.191 E13.58537
G1 X185.264 Y187.31 E13.59076
G1 X185.061 Y187.523 E13.60055
G1 X184.719 Y187.872 E13.6168
G1 X180.37 Y192.221 E13.82137
G1 X179.876 Y192.7 E13.84425
G1 X179.188 Y193.312 E13.87488
G1 X178.449 Y193.861 E13.9055
G1 X177.666 Y194.345 E13.93611
G1 X176.843 Y194.758 E13.96674
G1 X175.988 Y195.099 E13.99736
G1 X175.106 Y195.364 E14.02799
G1 X174.205 Y195.552 E14.0586
G1 X172.853 Y195.684 E14.10378
G1 X172.477 Y195.694 E14.11629
G1 X171.938 Y195.7 E14.13422
G1 X128.005 Y195.7 E15.59544
G1 X127.354 Y195.69 E15.61709
G1 X126.435 Y195.636 E15.64771
G1 X125.524 Y195.502 E15.67834
G1 X124.628 Y195.29 E15.70896
G1 X123.631 Y194.953 E15.74396
G1 X122.789 Y194.581 E15.77458
G1 X121.983 Y194.137 E15.80519
G1 X121.218 Y193.624 E15.83582
G1 X120.25 Y192.821 E15.87765
G1 X120.078 Y192.66 E15.88549
G1 X119.829 Y192.419 E15.89702
G1 X115.391 Y187.984 E16.10569
G1 X114.806 Y187.383 E16.13359
G1 X114.193 Y186.695 E16.16424
G1 X113.643 Y185.957 E16.19485
G1 X113.159 Y185.174 E16.22547
G1 X112.745 Y184.352 E16.25608
G1 X112.403 Y183.497 E16.28671
G1 X112.137 Y182.615 E16.31735
G1 X111.949 Y181.714 E16.34796
G1 X111.816 Y180.381 E16.39252
G1 X111.805 Y179.988 E16.40559
G1 X111.799 Y179.447 E16.42359
G1 X111.801 Y135.554 E17.88347
G1 X111.811 Y134.853 E17.90679
G1 X111.864 Y133.934 E17.93741
G1 X111.997 Y133.023 E17.96803
G1 X112.208 Y132.127 E17.99865
G1 X112.496 Y131.252 E18.02929
G1 X112.859 Y130.406 E18.0599
G1 X113.294 Y129.595 E18.09051
G1 X113.798 Y128.824 E18.12115
G1 X114.626 Y127.809 E18.16472
G1 X114.736 Y127.69 E18.17011
G1 X114.939 Y127.477 E18.17989
G1 X115.281 Y127.128 E18.19615
G1 X119.64 Y122.769 E18.40118
G0 F6000 X119.918 Y123.056
G1 F1200 X120.404 Y122.585 E18.42369
G1 X121.08 Y121.986 E18.45373
G1 X121.806 Y121.449 E18.48376
G1 X122.577 Y120.978 E18.51381
G1 X123.386 Y120.578 E18.54383
G1 X124.228 Y120.25 E18.57389
G1 X125.095 Y119.998 E18.60392
G1 X125.981 Y119.824 E18.63395
G1 X127.161 Y119.716 E18.67336
G1 X127.527 Y119.706 E18.68554
G1 X128.061 Y119.7 E18.7033
G1 X171.794 Y119.7 E20.15786
G1 X172.641 Y119.711 E20.18604
G1 X173.543 Y119.764 E20.21609
G1 X174.436 Y119.896 E20.24611
G1 X175.314 Y120.107 E20.27615
G1 X176.17 Y120.395 E20.30619
G1 X176.998 Y120.757 E20.33624
G1 X177.79 Y121.191 E20.36628
G1 X178.54 Y121.694 E20.39632
G1 X179.448 Y122.446 E20.43553
G1 X179.751 Y122.732 E20.44939
G1 X180.089 Y123.063 E20.46512
G1 X184.432 Y127.407 E20.66943
G1 X184.908 Y127.897 E20.69215
G1 X185.508 Y128.572 E20.72219
G1 X186.046 Y129.297 E20.75221
G1 X186.518 Y130.067 E20.78225
G1 X186.919 Y130.876 E20.81228
G1 X187.248 Y131.717 E20.84232
G1 X187.501 Y132.584 E20.87236
G1 X187.676 Y133.47 E20.9024
G1 X187.788 Y134.706 E20.94368
G1 X187.795 Y135.017 E20.95402
G1 X187.801 Y135.553 E20.97185
G1 X187.799 Y179.44 E22.43154
G1 X187.789 Y180.141 E22.45486
G1 X187.736 Y181.043 E22.48491
G1 X187.604 Y181.936 E22.51493
G1 X187.393 Y182.815 E22.545
G1 X187.105 Y183.671 E22.57504
G1 X186.743 Y184.498 E22.60506
G1 X186.309 Y185.29 E22.6351
G1 X185.806 Y186.04 E22.66514
G1 X185.08 Y186.92 E22.70308
G1 X184.97 Y187.039 E22.70847
G1 X184.775 Y187.244 E22.71788
G1 X184.436 Y187.59 E22.73399
G1 X180.091 Y191.934 E22.93834
G1 X179.597 Y192.413 E22.96123
G1 X178.922 Y193.012 E22.99125
G1 X178.196 Y193.549 E23.02128
G1 X177.425 Y194.02 E23.05133
G1 X176.616 Y194.421 E23.08136
G1 X175.775 Y194.749 E23.11139
G1 X174.907 Y195.001 E23.14145
G1 X174.021 Y195.175 E23.17148
G1 X172.839 Y195.284 E23.21096
G1 X172.472 Y195.294 E23.22317
G1 X171.938 Y195.3 E23.24093
G1 X128.011 Y195.3 E24.70195
G1 X127.36 Y195.29 E24.7236
G1 X126.459 Y195.236 E24.75363
G1 X125.566 Y195.103 E24.78365
G1 X124.688 Y194.891 E24.8137
G1 X123.777 Y194.581 E24.8457
G1 X122.952 Y194.215 E24.87572
G1 X122.162 Y193.777 E24.90577
G1 X121.413 Y193.271 E24.93583
G1 X120.524 Y192.529 E24.97434
G1 X120.352 Y192.368 E24.98218
G1 X120.112 Y192.136 E24.99328
G1 X115.674 Y187.701 E25.20196
G1 X115.093 Y187.104 E25.22967
G1 X114.493 Y186.429 E25.25971
G1 X113.955 Y185.704 E25.28973
G1 X113.483 Y184.933 E25.3198
G1 X113.081 Y184.124 E25.34985
G1 X112.753 Y183.283 E25.37987
G1 X112.5 Y182.416 E25.40991
G1 X112.325 Y181.53 E25.43995
G1 X112.216 Y180.366 E25.47883
G1 X112.205 Y179.983 E25.49158
G1 X112.199 Y179.447 E25.5094
G1 X112.201 Y135.56 E26.96909
G1 X112.211 Y134.859 E26.99241
G1 X112.264 Y133.957 E27.02246
G1 X112.396 Y133.064 E27.05249
G1 X112.607 Y132.185 E27.08255
G1 X112.895 Y131.329 E27.11259
G1 X113.257 Y130.502 E27.14262
G1 X113.691 Y129.71 E27.17266
G1 X114.194 Y128.96 E27.20269
G1 X114.92 Y128.08 E27.24063
G1 X115.03 Y127.961 E27.24602
G1 X115.225 Y127.756 E27.25543
G1 X115.564 Y127.41 E27.27155
G1 X119.918 Y123.056 E27.47634
G1 F2700 E22.47634
;MESH:otto-diy_ninja_lid.stl
G0 F6000 X145.041 Y154.934
G0 X143.391 Y154.077
G0 X143.326 Y157.957
G0 X143.45 Y158.862
G0 X143.696 Y159.74
G0 X144.06 Y160.577
G0 X144.534 Y161.358
G0 X145.11 Y162.067
G0 X145.779 Y162.691
G0 X146.525 Y163.216
G0 X146.984 Y163.454
G0 X150 Y164.752
;TYPE:WALL-INNER
G1 F2700 E27.47634
G1 F1200 X150.988 Y164.685 E27.50928
G1 X151.956 Y164.483 E27.54217
G1 X152.89 Y164.153 E27.57512
G1 X153.767 Y163.695 E27.60802
G1 X154.576 Y163.126 E27.64092
G1 X155.301 Y162.451 E27.67387
G1 X155.926 Y161.682 E27.70683
G1 X156.439 Y160.835 E27.73976
G1 X156.834 Y159.928 E27.77267
G1 X157.101 Y158.977 E27.80552
G1 X157.235 Y157.995 E27.83848
G1 X157.235 Y157.005 E27.87141
G1 X157.101 Y156.023 E27.90438
G1 X156.834 Y155.072 E27.93723
G1 X156.439 Y154.165 E27.97013
G1 X155.926 Y153.318 E28.00307
G1 X155.301 Y152.549 E28.03603
G1 X154.576 Y151.874 E28.06897
G1 X153.767 Y151.305 E28.10187
G1 X152.89 Y150.847 E28.13478
G1 X151.956 Y150.517 E28.16772
G1 X150.988 Y150.315 E28.20061
G1 X150 Y150.248 E28.23355
G1 X149.012 Y150.315 E28.26649
G1 X148.044 Y150.517 E28.29938
G1 X147.11 Y150.847 E28.33232
G1 X146.233 Y151.305 E28.36523
G1 X145.424 Y151.874 E28.39813
G1 X144.699 Y152.549 E28.43107
G1 X144.074 Y153.318 E28.46403
G1 X143.561 Y154.165 E28.49697
G1 X143.166 Y155.072 E28.52987
G1 X142.899 Y156.023 E28.56273
G1 X142.765 Y157.005 E28.59569
G1 X142.765 Y157.995 E28.62862
G1 X142.899 Y158.977 E28.66158
G1 X143.166 Y159.928 E28.69443
G1 X143.561 Y160.835 E28.72734
G1 X144.074 Y161.682 E28.76027
G1 X144.699 Y162.451 E28.79323
G1 X145.424 Y163.126 E28.82618
G1 X146.233 Y163.695 E28.85908
G1 X147.11 Y164.153 E28.89198
G1 X148.044 Y164.483 E28.92493
G1 X149.012 Y164.685 E28.95782
G1 X150 Y164.752 E28.99076
G0 F6000 X150 Y164.351
G1 F1200 X150.933 Y164.288 E29.02186
G1 X151.848 Y164.097 E29.05295
G1 X152.73 Y163.785 E29.08406
G1 X153.559 Y163.353 E29.11516
G1 X154.323 Y162.815 E29.14623
G1 X155.008 Y162.177 E29.17737
G1 X155.598 Y161.451 E29.20848
G1 X156.083 Y160.651 E29.2396
G1 X156.456 Y159.794 E29.27069
G1 X156.708 Y158.895 E29.30174
G1 X156.835 Y157.968 E29.33286
G1 X156.835 Y157.032 E29.36399
G1 X156.708 Y156.105 E29.39511
G1 X156.456 Y155.206 E29.42617
G1 X156.083 Y154.349 E29.45725
G1 X155.598 Y153.549 E29.48837
G1 X155.008 Y152.823 E29.51948
G1 X154.323 Y152.185 E29.55062
G1 X153.559 Y151.647 E29.5817
G1 X152.73 Y151.215 E29.61279
G1 X151.848 Y150.903 E29.64391
G1 X150.933 Y150.712 E29.67499
G1 X150 Y150.649 E29.7061
G1 X149.067 Y150.712 E29.7372
G1 X148.152 Y150.903 E29.76829
G1 X147.27 Y151.215 E29.79941
G1 X146.441 Y151.647 E29.8305
G1 X145.677 Y152.185 E29.86158
G1 X144.992 Y152.823 E29.89271
G1 X144.402 Y153.549 E29.92383
G1 X143.917 Y154.349 E29.95494
G1 X143.544 Y155.206 E29.98603
G1 X143.292 Y156.105 E30.01708
G1 X143.165 Y157.032 E30.0482
G1 X143.165 Y157.968 E30.07933
G1 X143.292 Y158.895 E30.11045
G1 X143.544 Y159.794 E30.14151
G1 X143.917 Y160.651 E30.17259
G1 X144.402 Y161.451 E30.20371
G1 X144.992 Y162.177 E30.23482
G1 X145.677 Y162.815 E30.26596
G1 X146.441 Y163.353 E30.29704
G1 X147.27 Y163.785 E30.32813
G1 X148.152 Y164.097 E30.35925
G1 X149.067 Y164.288 E30.39034
G1 X150 Y164.351 E30.42144
G0 F6000 X150 Y163.95
;TYPE:WALL-OUTER
G1 F1200 X150.878 Y163.891 E30.45071
G1 X151.74 Y163.711 E30.48
G1 X152.57 Y163.417 E30.50928
G1 X153.351 Y163.011 E30.53856
G1 X154.07 Y162.504 E30.56782
G1 X154.715 Y161.903 E30.59714
G1 X155.27 Y161.22 E30.62641
G1 X155.727 Y160.467 E30.65571
G1 X156.078 Y159.66 E30.68498
G1 X156.315 Y158.813 E30.71423
G1 X156.435 Y157.941 E30.74351
G1 X156.435 Y157.059 E30.77284
G1 X156.315 Y156.187 E30.80212
G1 X156.078 Y155.34 E30.83137
G1 X155.727 Y154.533 E30.86064
G1 X155.27 Y153.78 E30.88994
G1 X154.715 Y153.097 E30.91921
G1 X154.07 Y152.496 E30.94853
G1 X153.351 Y151.989 E30.9778
G1 X152.57 Y151.583 E31.00707
G1 X151.74 Y151.289 E31.03636
G1 X150.878 Y151.109 E31.06565
G1 X150 Y151.05 E31.09491
G1 X149.122 Y151.109 E31.12418
G1 X148.26 Y151.289 E31.15347
G1 X147.43 Y151.583 E31.18276
G1 X146.649 Y151.989 E31.21203
G1 X145.93 Y152.496 E31.2413
G1 X145.285 Y153.097 E31.27062
G1 X144.73 Y153.78 E31.29989
G1 X144.273 Y154.533 E31.32919
G1 X143.922 Y155.34 E31.35846
G1 X143.685 Y156.187 E31.38771
G1 X143.565 Y157.059 E31.41699
G1 X143.565 Y157.941 E31.44632
G1 X143.685 Y158.813 E31.4756
G1 X143.922 Y159.66 E31.50485
G1 X144.273 Y160.467 E31.53412
G1 X144.73 Y161.22 E31.56342
G1 X145.285 Y161.903 E31.59269
G1 X145.93 Y162.504 E31.62201
G1 X146.649 Y163.011 E31.65127
G1 X147.43 Y163.417 E31.68055
G1 X148.26 Y163.711 E31.70983
G1 X149.122 Y163.891 E31.73912
G1 X150 Y163.95 E31.76839
G0 F6000 X150 Y164.39
G1 F2700 E26.76839
G0 F6000 X152.008 Y164.667
G0 X151.509 Y162.876
G0 X152.009 Y185.765
G0 X152.008 Y183.89
G0 X172.087 Y184.1
;TYPE:WALL-INNER
G1 F2700 E31.76839
G1 F1200 X127.913 Y184.1 E33.23763
G1 X123.399 Y179.587 E33.44993
G1 X123.4 Y135.413 E34.91916
G1 X127.913 Y130.9 E35.13144
G1 X172.087 Y130.9 E36.60067
G1 X176.601 Y135.413 E36.81297
G1 X176.6 Y179.587 E38.2822
G1 X172.087 Y184.1 E38.49448
G0 F6000 X172.253 Y184.5
G1 F1200 X127.747 Y184.5 E39.97476
G1 X122.999 Y179.753 E40.19807
G1 X123 Y135.247 E41.67834
G1 X127.747 Y130.5 E41.90163
G1 X172.253 Y130.5 E43.3819
