;FLAVOR:Marlin
;TIME:9264
;Filament used: 5.25321m
;Layer height: 0.2
;MINX:121.376
;MINY:123.743
;MINZ:0.2
;MAXX:183.421
;MAXY:191.382
;MAXZ:60.8
;Generated with Cura_SteamEngine 4.13.0
M82 ;absolute extrusion mode
; START OF PREHEAT AND HOMEING SEQUENCE
M107 ;Turn off part cooling blowers
M140 S50 ;Start heating bed
M104 S200 ;Start heating extruder

; Home and move to center of the bed
G1 Z2.0 F3000; Move Z Axis up to prevent scratching bed
G28 ;Home
M420 S1 Z2 ; Use ABL to center on the bed
G1 Z62.0 F1000; Move Z Axis up to manual addjust steppers
M190 S50 ;Wait for bed to reach temp before proceeding
M109 S200 ;Wait for extruder to reach temp before proceeding
G28 ;Home and reset leveling
; END OF PREHEAT AND HOMEING SEQUENCE

M201 X500.00 Y500.00 Z100.00 E5000.00 ;Setup machine max acceleration
M203 X500.00 Y500.00 Z10.00 E50.00 ;Setup machine max feedrate
M204 P500.00 R1000.00 T500.00 ;Setup Print/Retract/Travel acceleration
M205 X8.00 Y8.00 Z0.40 E5.00 ;Setup Jerk
M220 S100 ;Reset Feedrate
M221 S100 ;Reset Flowrate
M420 S1 Z2 ;Enable ABL using saved Mesh and Fade Height

G92 E0 ;Reset Extruder
G1 Z2.0 F3000 ;Move Z Axis up
G1 X10.1 Y20 Z0.28 F5000.0 ;Move to start position
G1 X10.1 Y200.0 Z0.28 F1500.0 E15 ;Draw the first line
G1 X10.4 Y200.0 Z0.28 F5000.0 ;Move to side a little
G1 X10.4 Y20 Z0.28 F1500.0 E30 ;Draw the second line
G92 E0 ;Reset Extruder
G1 Z2.0 F3000 ;Move Z Axis up
G92 E0
G92 E0
G1 F2700 E-5
;LAYER_COUNT:305
;LAYER:0
M107
G0 F6000 X125.251 Y134.442 Z0.2
;TYPE:SKIRT
G1 F2700 E0
G1 F1200 X125.602 Y134.147 E0.01525
G1 X125.894 Y133.909 E0.02778
G1 X126.951 Y133.064 E0.07279
G1 X127.653 Y132.517 E0.10239
G1 X128.416 Y131.972 E0.13357
G1 X129.091 Y131.567 E0.15976
G1 X131.289 Y130.352 E0.24329
G1 X133.433 Y129.087 E0.32608
G1 X135.583 Y127.737 E0.41052
G1 X137.194 Y126.668 E0.47483
G1 X137.997 Y126.184 E0.50601
G1 X138.839 Y125.769 E0.53723
G1 X139.712 Y125.428 E0.56841
G1 X140.612 Y125.162 E0.59962
G1 X141.53 Y124.974 E0.63079
G1 X142.462 Y124.865 E0.662
G1 X143.039 Y124.838 E0.68121
G1 X144.113 Y124.815 E0.71694
G1 X144.349 Y124.812 E0.72479
G1 X153.367 Y124.812 E1.02473
G1 X155.975 Y124.775 E1.11148
G1 X158.496 Y124.668 E1.1954
G1 X160.991 Y124.491 E1.2786
G1 X163.477 Y124.245 E1.36168
G1 X164.528 Y124.106 E1.39695
G1 X166.731 Y123.841 E1.47075
G1 X167.462 Y123.777 E1.49515
G1 X167.839 Y123.757 E1.50771
G1 X168.586 Y123.743 E1.53256
G1 X169.055 Y123.75 E1.54816
G1 X169.779 Y123.785 E1.57227
G1 X170.236 Y123.822 E1.58752
G1 X170.95 Y123.903 E1.61142
G1 X171.378 Y123.966 E1.62581
G1 X172.062 Y124.089 E1.64892
G1 X172.462 Y124.174 E1.66252
G1 X173.097 Y124.329 E1.68426
G1 X173.5 Y124.44 E1.69817
G1 X173.874 Y124.55 E1.71113
G1 X174.212 Y124.658 E1.72293
G1 X174.562 Y124.777 E1.73523
G1 X174.855 Y124.882 E1.74558
G1 X175.175 Y125.001 E1.75694
G1 X175.683 Y125.204 E1.77513
G1 X176.116 Y125.39 E1.79081
G1 X176.506 Y125.567 E1.80505
G1 X176.762 Y125.689 E1.81448
G1 X177.203 Y125.911 E1.8309
G1 X177.584 Y126.114 E1.84526
G1 X178.392 Y126.59 E1.87645
G1 X179.156 Y127.133 E1.90763
G1 X179.872 Y127.739 E1.93883
G1 X180.533 Y128.404 E1.97001
G1 X181.136 Y129.123 E2.00122
G1 X181.675 Y129.89 E2.0324
G1 X182.146 Y130.701 E2.0636
G1 X182.547 Y131.549 E2.0948
G1 X182.874 Y132.428 E2.12599
G1 X183.125 Y133.332 E2.15719
G1 X183.299 Y134.253 E2.18837
G1 X183.406 Y135.477 E2.22923
G1 X183.416 Y135.796 E2.23985
G1 X183.421 Y136.141 E2.25132
G1 X183.42 Y138.275 E2.3223
G1 X183.409 Y138.985 E2.34592
G1 X183.354 Y139.922 E2.37714
G1 X183.253 Y140.669 E2.40221
G1 X182.822 Y143.191 E2.48731
G1 X182.469 Y145.661 E2.57029
G1 X182.185 Y148.154 E2.65375
G1 X181.971 Y150.663 E2.7375
G1 X181.827 Y153.194 E2.82182
G1 X181.756 Y155.679 E2.9045
G1 X181.756 Y158.203 E2.98845
G1 X181.826 Y160.725 E3.07237
G1 X181.969 Y163.247 E3.15638
G1 X182.182 Y165.771 E3.24063
G1 X182.461 Y168.233 E3.32304
G1 X182.822 Y170.772 E3.40834
G1 X183.046 Y172.134 E3.45425
G1 X183.251 Y173.322 E3.49434
G1 X183.371 Y174.253 E3.52556
G1 X183.406 Y174.855 E3.54562
G1 X183.416 Y175.18 E3.55644
G1 X183.421 Y175.518 E3.56768
G1 X183.42 Y178.728 E3.67444
G1 X183.41 Y179.458 E3.69873
G1 X183.357 Y180.394 E3.72991
G1 X183.225 Y181.323 E3.76112
G1 X183.014 Y182.236 E3.79228
G1 X182.726 Y183.129 E3.82349
G1 X182.363 Y183.994 E3.85469
G1 X181.927 Y184.824 E3.88587
G1 X181.423 Y185.615 E3.91707
G1 X180.853 Y186.36 E3.94827
G1 X180.221 Y187.053 E3.97946
G1 X179.533 Y187.69 E4.01065
G1 X178.793 Y188.266 E4.04184
G1 X178.099 Y188.722 E4.06946
G1 X177.572 Y189.025 E4.08968
G1 X177.386 Y189.125 E4.0967
G1 X176.89 Y189.375 E4.11518
G1 X176.599 Y189.513 E4.12589
G1 X176.347 Y189.629 E4.13511
G1 X175.93 Y189.814 E4.15029
G1 X175.474 Y190.006 E4.16674
G1 X174.966 Y190.201 E4.18484
G1 X174.447 Y190.386 E4.20317
G1 X174.059 Y190.517 E4.21679
G1 X173.859 Y190.58 E4.22376
G1 X173.42 Y190.708 E4.23897
G1 X173.068 Y190.803 E4.2511
G1 X172.728 Y190.889 E4.26276
G1 X172.338 Y190.977 E4.27606
G1 X171.87 Y191.073 E4.29195
G1 X170.898 Y191.227 E4.32468
G1 X170.236 Y191.302 E4.34684
G1 X169.168 Y191.371 E4.38244
G1 X168.455 Y191.382 E4.40615
G1 X167.521 Y191.356 E4.43723
G1 X167.248 Y191.337 E4.44633
G1 X166.706 Y191.286 E4.46444
G1 X166.43 Y191.253 E4.47369
G1 X165.81 Y191.161 E4.49453
G1 X164.588 Y190.942 E4.53582
G1 X162.984 Y190.627 E4.59019
G1 X160.49 Y190.209 E4.6743
G1 X158.028 Y189.869 E4.75696
G1 X155.489 Y189.59 E4.84192
G1 X152.997 Y189.388 E4.92508
G1 X150.502 Y189.256 E5.00818
G1 X146.946 Y189.188 E5.12647
G1 X143.826 Y189.187 E5.23024
G1 X143.121 Y189.176 E5.25369
G1 X142.185 Y189.121 E5.28488
G1 X141.257 Y188.987 E5.31606
G1 X140.343 Y188.774 E5.34728
G1 X139.451 Y188.484 E5.37847
G1 X138.587 Y188.12 E5.40966
G1 X137.758 Y187.683 E5.44083
G1 X137.266 Y187.379 E5.46006
G1 X136.1 Y186.614 E5.50645
G1 X135.744 Y186.375 E5.52071
G1 X133.607 Y185.023 E5.60481
G1 X131.449 Y183.744 E5.68825
G1 X129.38 Y182.59 E5.76704
G1 X129.131 Y182.454 E5.77648
G1 X128.328 Y181.97 E5.80766
G1 X127.847 Y181.632 E5.82722
G1 X127.57 Y181.422 E5.83878
G1 X127.022 Y180.994 E5.86191
G1 X125.974 Y180.154 E5.90658
G1 X125.404 Y179.686 E5.93111
G1 X124.705 Y179.06 E5.96232
G1 X124.062 Y178.377 E5.99352
G1 X123.479 Y177.642 E6.02472
G1 X122.962 Y176.86 E6.0559
G1 X122.512 Y176.037 E6.0871
G1 X122.135 Y175.178 E6.1183
G1 X121.832 Y174.291 E6.14947
G1 X121.606 Y173.381 E6.18066
G1 X121.458 Y172.455 E6.21185
G1 X121.387 Y171.447 E6.24546
G1 X121.378 Y171.07 E6.258
G1 X121.376 Y170.645 E6.27214
G1 X121.385 Y170.035 E6.29243
G1 X121.469 Y168.835 E6.33244
G1 X121.522 Y168.408 E6.34675
G1 X121.817 Y165.815 E6.43355
G1 X122.031 Y163.308 E6.51723
G1 X122.173 Y160.792 E6.60105
G1 X122.245 Y158.297 E6.68407
G1 X122.245 Y155.772 E6.76805
G1 X122.174 Y153.221 E6.85293
G1 X122.034 Y150.758 E6.93498
G1 X121.819 Y148.221 E7.01967
G1 X121.522 Y145.612 E7.107
G1 X121.456 Y145.054 E7.12569
G1 X121.388 Y144.104 E7.15737
G1 X121.379 Y143.777 E7.16825
G1 X121.376 Y143.339 E7.18282
G1 X121.384 Y142.686 E7.20454
G1 X121.435 Y141.75 E7.23571
G1 X121.566 Y140.821 E7.26692
G1 X121.776 Y139.907 E7.29811
G1 X122.063 Y139.014 E7.32931
G1 X122.425 Y138.149 E7.3605
G1 X122.859 Y137.317 E7.39171
G1 X123.236 Y136.71 E7.41547
G1 X123.789 Y135.953 E7.44665
G1 X124.405 Y135.245 E7.47787
G1 X125.251 Y134.442 E7.51666
G0 F6000 X125.511 Y134.746
G1 F1200 X125.855 Y134.457 E7.53161
G1 X126.144 Y134.221 E7.54402
G1 X127.305 Y133.294 E7.59343
G1 X127.898 Y132.832 E7.61843
G1 X128.649 Y132.298 E7.64908
G1 X129.285 Y131.917 E7.67374
G1 X131.464 Y130.712 E7.75656
G1 X133.67 Y129.411 E7.84174
G1 X135.81 Y128.067 E7.92579
G1 X137.415 Y127.002 E7.98985
G1 X138.204 Y126.527 E8.02049
G1 X139.031 Y126.122 E8.05111
G1 X139.89 Y125.79 E8.08174
G1 X140.774 Y125.534 E8.11235
G1 X141.677 Y125.356 E8.14296
G1 X143.048 Y125.237 E8.18874
G1 X144.122 Y125.214 E8.22447
G1 X144.349 Y125.212 E8.23202
G1 X153.373 Y125.212 E8.53216
G1 X155.998 Y125.175 E8.61947
G1 X158.506 Y125.068 E8.70296
G1 X161.026 Y124.89 E8.78699
G1 X163.505 Y124.644 E8.86985
G1 X164.576 Y124.503 E8.90577
G1 X166.779 Y124.238 E8.97957
G1 X167.483 Y124.177 E9.00308
G1 X167.86 Y124.157 E9.01563
G1 X168.58 Y124.143 E9.03959
G1 X169.049 Y124.15 E9.05519
G1 X169.746 Y124.184 E9.0784
G1 X170.203 Y124.221 E9.09365
G1 X170.892 Y124.299 E9.11671
G1 X171.32 Y124.362 E9.1311
G1 X171.979 Y124.481 E9.15337
G1 X172.379 Y124.566 E9.16697
G1 X172.991 Y124.715 E9.18792
G1 X173.394 Y124.826 E9.20182
G1 X173.757 Y124.932 E9.2144
G1 X174.083 Y125.037 E9.22579
G1 X174.433 Y125.156 E9.23809
G1 X174.716 Y125.257 E9.24808
G1 X175.036 Y125.376 E9.25944
G1 X175.525 Y125.572 E9.27696
G1 X175.958 Y125.758 E9.29263
G1 X176.334 Y125.928 E9.30636
G1 X176.59 Y126.05 E9.31579
G1 X177.014 Y126.264 E9.33159
G1 X177.395 Y126.467 E9.34595
G1 X178.188 Y126.935 E9.37657
G1 X178.938 Y127.47 E9.40721
G1 X179.638 Y128.067 E9.43781
G1 X180.283 Y128.724 E9.46844
G1 X180.87 Y129.434 E9.49908
G1 X181.392 Y130.192 E9.52969
G1 X181.847 Y130.992 E9.5603
G1 X182.23 Y131.829 E9.59091
G1 X182.54 Y132.696 E9.62154
G1 X182.773 Y133.587 E9.65217
G1 X182.928 Y134.495 E9.68281
G1 X183.006 Y135.49 E9.716
G1 X183.016 Y135.809 E9.72662
G1 X183.021 Y136.141 E9.73766
G1 X183.02 Y138.269 E9.80844
G1 X183.009 Y138.979 E9.83205
G1 X182.955 Y139.898 E9.86267
G1 X182.858 Y140.601 E9.88628
G1 X182.43 Y143.103 E9.9707
G1 X182.079 Y145.559 E10.05322
G1 X181.788 Y148.111 E10.13865
G1 X181.572 Y150.643 E10.22317
G1 X181.429 Y153.159 E10.30699
G1 X181.356 Y155.702 E10.3916
G1 X181.356 Y158.214 E10.47515
G1 X181.427 Y160.76 E10.55987
G1 X181.568 Y163.267 E10.64338
G1 X181.781 Y165.779 E10.72723
G1 X182.066 Y168.298 E10.81155
G1 X182.429 Y170.849 E10.89725
G1 X182.652 Y172.203 E10.94289
G1 X182.857 Y173.391 E10.98299
G1 X182.974 Y174.304 E11.0136
G1 X183.006 Y174.867 E11.03236
G1 X183.016 Y175.192 E11.04317
G1 X183.021 Y175.518 E11.05401
G1 X183.02 Y178.722 E11.16058
G1 X183.01 Y179.452 E11.18486
G1 X182.957 Y180.371 E11.21548
G1 X182.825 Y181.282 E11.2461
G1 X182.615 Y182.179 E11.27674
G1 X182.327 Y183.053 E11.30734
G1 X181.964 Y183.9 E11.33799
G1 X181.53 Y184.711 E11.36859
G1 X181.027 Y185.482 E11.3992
G1 X180.458 Y186.206 E11.42983
G1 X179.829 Y186.879 E11.46047
G1 X179.144 Y187.494 E11.49109
G1 X178.408 Y188.047 E11.52171
G1 X177.892 Y188.38 E11.54213
G1 X177.382 Y188.672 E11.56168
G1 X177.196 Y188.772 E11.5687
G1 X176.719 Y189.014 E11.58649
G1 X176.428 Y189.152 E11.59721
G1 X176.185 Y189.263 E11.60609
G1 X175.768 Y189.448 E11.62126
G1 X175.518 Y189.555 E11.63031
G1 X175.322 Y189.636 E11.63736
G1 X174.832 Y189.825 E11.65483
G1 X174.313 Y190.01 E11.67316
G1 X173.939 Y190.135 E11.68627
G1 X173.739 Y190.198 E11.69325
G1 X173.316 Y190.322 E11.70791
G1 X172.964 Y190.417 E11.72003
G1 X172.633 Y190.501 E11.73139
G1 X172.258 Y190.585 E11.74417
G1 X171.79 Y190.681 E11.76006
G1 X170.853 Y190.83 E11.79162
G1 X170.191 Y190.905 E11.81378
G1 X169.162 Y190.971 E11.84807
G1 X168.449 Y190.982 E11.87179
G1 X167.549 Y190.957 E11.90174
G1 X167.276 Y190.938 E11.91084
G1 X166.754 Y190.889 E11.92828
G1 X166.478 Y190.856 E11.93752
G1 X165.88 Y190.767 E11.95763
G1 X164.851 Y190.584 E11.99239
G1 X163.056 Y190.233 E12.05322
G1 X160.574 Y189.817 E12.13693
G1 X158.056 Y189.469 E12.22147
G1 X155.53 Y189.192 E12.30599
G1 X153.018 Y188.988 E12.38982
G1 X150.531 Y188.857 E12.47265
G1 X146.953 Y188.788 E12.59168
G1 X143.833 Y188.787 E12.69545
G1 X143.128 Y188.776 E12.7189
G1 X142.209 Y188.721 E12.74952
G1 X141.298 Y188.588 E12.78014
G1 X140.402 Y188.375 E12.81077
G1 X139.528 Y188.086 E12.84139
G1 X138.682 Y187.722 E12.87202
G1 X137.485 Y187.044 E12.91778
G1 X136.323 Y186.282 E12.96399
G1 X135.959 Y186.038 E12.97857
G1 X133.819 Y184.684 E13.0628
G1 X131.654 Y183.4 E13.14652
G1 X129.519 Y182.21 E13.22781
G1 X129.323 Y182.103 E13.23524
G1 X128.535 Y181.627 E13.26586
G1 X128.085 Y181.311 E13.28415
G1 X127.816 Y181.107 E13.29538
G1 X127.272 Y180.681 E13.31836
G1 X126.228 Y179.844 E13.36286
G1 X125.658 Y179.376 E13.38739
G1 X124.972 Y178.762 E13.41801
G1 X124.343 Y178.09 E13.44863
G1 X123.774 Y177.366 E13.47925
G1 X123.27 Y176.596 E13.50986
G1 X122.834 Y175.785 E13.54049
G1 X122.471 Y174.939 E13.57111
G1 X122.183 Y174.064 E13.60175
G1 X121.971 Y173.168 E13.63237
G1 X121.838 Y172.257 E13.66299
G1 X121.787 Y171.437 E13.69032
G1 X121.778 Y171.06 E13.70286
G1 X121.776 Y170.651 E13.71646
G1 X121.785 Y170.041 E13.73675
G1 X121.866 Y168.885 E13.7753
G1 X121.913 Y168.508 E13.78793
G1 X122.214 Y165.862 E13.87651
G1 X122.43 Y163.33 E13.96103
G1 X122.572 Y160.825 E14.04448
G1 X122.645 Y158.273 E14.12939
G1 X122.645 Y155.761 E14.21294
G1 X122.574 Y153.223 E14.29739
G1 X122.431 Y150.7 E14.38144
G1 X122.217 Y148.178 E14.46562
G1 X121.93 Y145.65 E14.55024
G1 X121.893 Y145.357 E14.56007
G1 X121.853 Y145.008 E14.57175
G1 X121.788 Y144.093 E14.60226
G1 X121.779 Y143.766 E14.61314
G1 X121.776 Y143.344 E14.62718
G1 X121.784 Y142.691 E14.6489
G1 X121.835 Y141.772 E14.67951
G1 X121.966 Y140.861 E14.71012
G1 X122.175 Y139.964 E14.74076
G1 X122.462 Y139.089 E14.77138
G1 X122.823 Y138.242 E14.80201
G1 X123.256 Y137.43 E14.83261
G1 X123.569 Y136.932 E14.85218
G1 X124.113 Y136.189 E14.88281
G1 X124.719 Y135.496 E14.91342
G1 X125.511 Y134.746 E14.9497
G0 F6000 X125.771 Y135.051
G1 F1200 X126.107 Y134.767 E14.96434
G1 X126.394 Y134.534 E14.97663
G1 X127.551 Y133.61 E15.02588
G1 X128.144 Y133.148 E15.05088
G1 X128.881 Y132.625 E15.08094
G1 X129.478 Y132.267 E15.10409
G1 X131.697 Y131.04 E15.18843
G1 X133.865 Y129.762 E15.27213
G1 X136.017 Y128.41 E15.35666
G1 X137.637 Y127.335 E15.42133
G1 X138.411 Y126.87 E15.45136
G1 X139.223 Y126.475 E15.48139
G1 X140.066 Y126.153 E15.51141
G1 X140.935 Y125.907 E15.54144
G1 X141.823 Y125.739 E15.5715
G1 X143.057 Y125.637 E15.61269
G1 X144.131 Y125.614 E15.64842
G1 X144.349 Y125.612 E15.65567
G1 X153.379 Y125.612 E15.95601
G1 X155.985 Y125.575 E16.04269
G1 X158.55 Y125.466 E16.12808
G1 X161.057 Y125.288 E16.21167
G1 X163.57 Y125.039 E16.29566
G1 X164.624 Y124.9 E16.33102
G1 X166.827 Y124.635 E16.40482
G1 X167.505 Y124.576 E16.42746
G1 X167.882 Y124.556 E16.44002
G1 X168.574 Y124.543 E16.46304
G1 X169.043 Y124.55 E16.47864
G1 X169.714 Y124.582 E16.50098
G1 X170.171 Y124.619 E16.51623
G1 X170.833 Y124.695 E16.53839
G1 X171.261 Y124.758 E16.55278
G1 X171.896 Y124.872 E16.57424
G1 X172.296 Y124.957 E16.58784
G1 X172.885 Y125.1 E16.608
G1 X173.288 Y125.211 E16.6219
G1 X173.641 Y125.315 E16.63414
G1 X173.954 Y125.416 E16.64508
G1 X174.304 Y125.535 E16.65738
G1 X174.576 Y125.632 E16.66698
G1 X174.896 Y125.751 E16.67834
G1 X175.367 Y125.939 E16.6952
G1 X175.8 Y126.125 E16.71088
G1 X176.162 Y126.289 E16.7241
G1 X176.418 Y126.411 E16.73353
G1 X176.826 Y126.617 E16.74873
G1 X177.207 Y126.82 E16.76309
G1 X177.985 Y127.28 E16.79315
G1 X178.719 Y127.806 E16.82318
G1 X179.403 Y128.395 E16.85321
G1 X180.032 Y129.043 E16.88324
G1 X180.602 Y129.744 E16.91329
G1 X181.108 Y130.492 E16.94333
G1 X181.545 Y131.282 E16.97336
G1 X181.911 Y132.108 E17.00341
G1 X182.202 Y132.963 E17.03345
G1 X182.417 Y133.84 E17.06348
G1 X182.553 Y134.733 E17.09352
G1 X182.606 Y135.502 E17.11916
G1 X182.616 Y135.821 E17.12978
G1 X182.621 Y136.141 E17.14042
G1 X182.62 Y138.263 E17.211
G1 X182.609 Y138.973 E17.23462
G1 X182.555 Y139.875 E17.26467
G1 X182.464 Y140.534 E17.2868
G1 X182.033 Y143.056 E17.37189
G1 X181.683 Y145.505 E17.45418
G1 X181.387 Y148.103 E17.54115
G1 X181.172 Y150.622 E17.62523
G1 X181.03 Y153.124 E17.70858
G1 X180.956 Y155.69 E17.79396
G1 X180.956 Y158.225 E17.87828
G1 X181.027 Y160.757 E17.96253
G1 X181.169 Y163.29 E18.04691
G1 X181.387 Y165.856 E18.13256
G1 X181.667 Y168.328 E18.2153
G1 X182.036 Y170.926 E18.30258
G1 X182.27 Y172.346 E18.35045
G1 X182.462 Y173.459 E18.38801
G1 X182.576 Y174.354 E18.41802
G1 X182.606 Y174.879 E18.43551
G1 X182.616 Y175.204 E18.44633
G1 X182.621 Y175.518 E18.45677
G1 X182.62 Y178.717 E18.56317
G1 X182.61 Y179.447 E18.58745
G1 X182.558 Y180.348 E18.61747
G1 X182.426 Y181.242 E18.64753
G1 X182.215 Y182.12 E18.67756
G1 X181.928 Y182.976 E18.70759
G1 X181.566 Y183.804 E18.73764
G1 X181.133 Y184.596 E18.76767
G1 X180.631 Y185.347 E18.79771
