;FLAVOR:Marlin
;TIME:10136
;Filament used: 6.46107m
;Layer height: 0.2
;MINX:106.769
;MINY:114.265
;MINZ:0.2
;MAXX:224.063
;MAXY:258.955
;MAXZ:7
;Generated with Cura_SteamEngine 4.13.0
M82 ;absolute extrusion mode
; START OF PREHEAT AND HOMEING SEQUENCE
M107 ;Turn off part cooling blowers
M140 S50 ;Start heating bed
M104 S200 ;Start heating extruder

; Home and move to center of the bed
G1 Z2.0 F3000; Move Z Axis up to prevent scratching bed
G28 ;Home
M420 S1 Z2 ; Use ABL to center on the bed
G1 Z62.0 F1000; Move Z Axis up to manual addjust steppers
M190 S50 ;Wait for bed to reach temp before proceeding
M109 S200 ;Wait for extruder to reach temp before proceeding
G28 ;Home and reset leveling
; END OF PREHEAT AND HOMEING SEQUENCE

M201 X500.00 Y500.00 Z100.00 E5000.00 ;Setup machine max acceleration
M203 X500.00 Y500.00 Z10.00 E50.00 ;Setup machine max feedrate
M204 P500.00 R1000.00 T500.00 ;Setup Print/Retract/Travel acceleration
M205 X8.00 Y8.00 Z0.40 E5.00 ;Setup Jerk
M220 S100 ;Reset Feedrate
M221 S100 ;Reset Flowrate
M420 S1 Z2 ;Enable ABL using saved Mesh and Fade Height

G92 E0 ;Reset Extruder
G1 Z2.0 F3000 ;Move Z Axis up
G1 X10.1 Y20 Z0.28 F5000.0 ;Move to start position
G1 X10.1 Y200.0 Z0.28 F1500.0 E15 ;Draw the first line
G1 X10.4 Y200.0 Z0.28 F5000.0 ;Move to side a little
G1 X10.4 Y20 Z0.28 F1500.0 E30 ;Draw the second line
G92 E0 ;Reset Extruder
G1 Z2.0 F3000 ;Move Z Axis up
G92 E0
G92 E0
G1 F2700 E-5
;LAYER_COUNT:35
;LAYER:0
M107
G0 F6000 X120.444 Y125.95 Z0.2
;TYPE:SKIRT
G1 F2700 E0
G1 F1200 X120.874 Y125.55 E0.01953
G1 X121.126 Y125.323 E0.03081
G1 X121.903 Y124.644 E0.06513
G1 X122.249 Y124.35 E0.08024
G1 X122.86 Y123.847 E0.10656
G1 X123.099 Y123.655 E0.11675
G1 X123.773 Y123.132 E0.14513
G1 X124.323 Y122.719 E0.16801
G1 X124.901 Y122.298 E0.19179
G1 X125.164 Y122.112 E0.2025
G1 X125.9 Y121.609 E0.23215
G1 X126.527 Y121.195 E0.25714
G1 X127.061 Y120.853 E0.27823
G1 X127.344 Y120.678 E0.2893
G1 X128.079 Y120.238 E0.31779
G1 X128.659 Y119.902 E0.34009
G1 X129.278 Y119.555 E0.36369
G1 X129.566 Y119.4 E0.37457
G1 X130.486 Y118.923 E0.40904
G1 X131.07 Y118.631 E0.43075
G1 X131.624 Y118.364 E0.45121
G1 X131.91 Y118.231 E0.4617
G1 X132.795 Y117.837 E0.49392
G1 X133.409 Y117.576 E0.51611
G1 X133.939 Y117.358 E0.53517
G1 X134.252 Y117.235 E0.54635
G1 X135.309 Y116.839 E0.5839
G1 X135.796 Y116.665 E0.6011
G1 X136.39 Y116.461 E0.62199
G1 X136.719 Y116.354 E0.63349
G1 X137.571 Y116.091 E0.66315
G1 X138.28 Y115.884 E0.68772
G1 X138.877 Y115.719 E0.70832
G1 X139.184 Y115.639 E0.71887
G1 X140.072 Y115.421 E0.74928
G1 X140.76 Y115.264 E0.77275
G1 X141.427 Y115.122 E0.79543
G1 X141.746 Y115.059 E0.80625
G1 X142.738 Y114.88 E0.83977
G1 X143.296 Y114.788 E0.85858
G1 X143.961 Y114.687 E0.88096
G1 X144.298 Y114.641 E0.89227
G1 X145.293 Y114.522 E0.9256
G1 X145.771 Y114.471 E0.94159
G1 X146.514 Y114.403 E0.9664
G1 X146.838 Y114.378 E0.97721
G1 X147.862 Y114.317 E1.01133
G1 X148.493 Y114.29 E1.03234
G1 X149.127 Y114.271 E1.05343
G1 X149.444 Y114.266 E1.06398
G1 X150.302 Y114.265 E1.09251
G1 X150.88 Y114.272 E1.11174
G1 X151.685 Y114.295 E1.13853
G1 X152.011 Y114.309 E1.14938
G1 X153.093 Y114.374 E1.18543
G1 X153.665 Y114.419 E1.20451
G1 X154.29 Y114.475 E1.22538
G1 X154.607 Y114.508 E1.23599
G1 X155.611 Y114.629 E1.26962
G1 X156.248 Y114.717 E1.29101
G1 X156.826 Y114.804 E1.31045
G1 X157.142 Y114.856 E1.3211
G1 X158.219 Y115.052 E1.35751
G1 X158.767 Y115.161 E1.37609
G1 X159.393 Y115.293 E1.39737
G1 X159.703 Y115.363 E1.40794
G1 X160.474 Y115.549 E1.43432
G1 X160.689 Y115.603 E1.44169
G1 X161.298 Y115.764 E1.46265
G1 X161.866 Y115.92 E1.48224
G1 X162.191 Y116.014 E1.49349
G1 X163.221 Y116.333 E1.52935
G1 X163.716 Y116.495 E1.54668
G1 X164.351 Y116.711 E1.56898
G1 X164.671 Y116.825 E1.58028
G1 X165.645 Y117.192 E1.6149
G1 X166.192 Y117.407 E1.63445
G1 X166.753 Y117.636 E1.6546
G1 X167.067 Y117.77 E1.66596
G1 X168.034 Y118.201 E1.70117
G1 X168.526 Y118.431 E1.71924
G1 X169.13 Y118.721 E1.74152
G1 X169.429 Y118.87 E1.75263
G1 X170.336 Y119.341 E1.78662
G1 X170.88 Y119.636 E1.80721
G1 X171.394 Y119.921 E1.82675
G1 X171.702 Y120.098 E1.83857
G1 X172.415 Y120.524 E1.86619
G1 X173.064 Y120.925 E1.89157
G1 X173.588 Y121.258 E1.91222
G1 X173.876 Y121.448 E1.92369
G1 X174.778 Y122.063 E1.96
G1 X175.138 Y122.317 E1.97466
G1 X175.758 Y122.767 E2.00014
G1 X176.018 Y122.961 E2.01093
G1 X176.779 Y123.55 E2.04293
G1 X177.31 Y123.974 E2.06553
G1 X177.767 Y124.349 E2.0852
G1 X178.018 Y124.562 E2.09615
G1 X178.789 Y125.236 E2.13021
G1 X179.235 Y125.639 E2.1502
G1 X179.71 Y126.079 E2.17173
G1 X179.949 Y126.307 E2.18272
G1 X180.686 Y127.034 E2.21715
G1 X181.1 Y127.457 E2.23684
G1 X181.528 Y127.904 E2.25742
G1 X181.743 Y128.135 E2.26792
G1 X182.463 Y128.934 E2.30369
G1 X182.811 Y129.335 E2.32135
G1 X183.24 Y129.84 E2.34339
G1 X183.454 Y130.099 E2.35456
G1 X184.11 Y130.923 E2.38959
G1 X184.451 Y131.365 E2.40816
G1 X184.841 Y131.885 E2.42978
G1 X185.032 Y132.147 E2.44056
G1 X185.548 Y132.879 E2.47035
G1 X185.952 Y133.472 E2.49422
G1 X186.304 Y134.004 E2.51543
G1 X186.483 Y134.284 E2.52649
G1 X186.951 Y135.04 E2.55606
G1 X187.329 Y135.672 E2.58055
G1 X187.647 Y136.223 E2.60171
G1 X187.801 Y136.498 E2.6122
G1 X188.311 Y137.446 E2.648
G1 X188.583 Y137.972 E2.6677
G1 X188.854 Y138.513 E2.68782
G1 X188.998 Y138.811 E2.69883
G1 X189.43 Y139.746 E2.73309
G1 X189.655 Y140.254 E2.75157
G1 X189.919 Y140.87 E2.77386
G1 X190.042 Y141.171 E2.78467
G1 X190.435 Y142.171 E2.82041
G1 X190.616 Y142.659 E2.83772
G1 X190.843 Y143.291 E2.86005
G1 X190.952 Y143.608 E2.8712
G1 X191.274 Y144.602 E2.90596
G1 X191.435 Y145.126 E2.92419
G1 X191.622 Y145.764 E2.9463
G1 X191.711 Y146.085 E2.95738
G1 X191.957 Y147.036 E2.99005
G1 X192.112 Y147.672 E3.01182
G1 X192.773 Y150.223 E3.09947
G1 X193.462 Y152.608 E3.18204
G1 X194.236 Y155.029 E3.26658
G1 X195.068 Y157.395 E3.35
G1 X195.964 Y159.731 E3.43321
G1 X196.937 Y162.067 E3.51738
G1 X197.974 Y164.37 E3.60138
G1 X199.059 Y166.611 E3.6842
G1 X200.232 Y168.865 E3.76871
G1 X201.451 Y171.058 E3.85216
G1 X202.735 Y173.22 E3.93579
G1 X204.078 Y175.341 E4.01929
G1 X205.49 Y177.439 E4.1034
G1 X206.96 Y179.495 E4.18746
G1 X208.485 Y181.504 E4.27135
G1 X210.019 Y183.413 E4.35281
G1 X212.628 Y186.429 E4.48544
G1 X213.231 Y187.098 E4.5154
G1 X213.45 Y187.347 E4.52643
G1 X214.095 Y188.109 E4.55963
G1 X214.446 Y188.538 E4.57807
G1 X214.859 Y189.053 E4.60003
G1 X215.077 Y189.333 E4.61183
G1 X215.709 Y190.178 E4.64693
G1 X216.057 Y190.659 E4.66667
G1 X216.406 Y191.155 E4.68684
G1 X216.585 Y191.418 E4.69742
G1 X217.156 Y192.283 E4.7319
G1 X217.484 Y192.796 E4.75215
G1 X217.817 Y193.335 E4.77322
G1 X217.984 Y193.616 E4.78409
G1 X218.496 Y194.503 E4.81816
G1 X218.761 Y194.981 E4.83634
G1 X219.1 Y195.61 E4.8601
G1 X219.253 Y195.904 E4.87113
G1 X219.701 Y196.801 E4.90447
G1 X219.955 Y197.332 E4.92405
G1 X220.212 Y197.885 E4.94433
G1 X220.35 Y198.194 E4.95559
G1 X220.767 Y199.172 E4.99095
G1 X220.987 Y199.711 E5.01031
G1 X221.213 Y200.285 E5.03083
G1 X221.331 Y200.598 E5.04196
G1 X221.684 Y201.584 E5.07679
G1 X221.879 Y202.158 E5.09695
G1 X222.065 Y202.73 E5.11696
G1 X222.159 Y203.035 E5.12757
G1 X222.453 Y204.04 E5.1624
G1 X222.624 Y204.665 E5.18395
G1 X222.766 Y205.21 E5.20268
G1 X222.845 Y205.532 E5.21371
G1 X223.078 Y206.559 E5.24874
G1 X223.2 Y207.138 E5.26842
G1 X223.317 Y207.728 E5.28842
G1 X223.376 Y208.054 E5.29944
G1 X223.553 Y209.119 E5.33535
G1 X223.642 Y209.714 E5.35536
G1 X223.719 Y210.279 E5.37433
G1 X223.759 Y210.608 E5.38535
G1 X223.872 Y211.691 E5.42157
G1 X223.923 Y212.262 E5.44063
G1 X223.97 Y212.884 E5.46138
G1 X223.99 Y213.213 E5.47234
G1 X224.035 Y214.227 E5.5061
G1 X224.054 Y214.878 E5.52776
G1 X224.063 Y215.45 E5.54679
G1 X224.063 Y215.785 E5.55793
G1 X224.046 Y216.826 E5.59256
G1 X224.026 Y217.471 E5.61402
G1 X224 Y218.055 E5.63347
G1 X223.981 Y218.377 E5.6442
G1 X223.918 Y219.229 E5.67261
G1 X223.851 Y219.987 E5.69792
G1 X223.785 Y220.619 E5.71905
G1 X223.745 Y220.949 E5.73011
G1 X223.599 Y222.02 E5.76606
G1 X223.509 Y222.611 E5.78595
G1 X223.413 Y223.19 E5.80547
G1 X223.355 Y223.509 E5.81625
G1 X223.156 Y224.515 E5.85036
G1 X223.03 Y225.107 E5.87049
G1 X222.893 Y225.713 E5.89115
G1 X222.809 Y226.057 E5.90293
G1 X222.556 Y227.027 E5.93627
G1 X222.383 Y227.654 E5.95791
G1 X222.215 Y228.229 E5.97783
G1 X222.121 Y228.534 E5.98845
G1 X221.857 Y229.349 E6.01694
G1 X221.663 Y229.919 E6.03697
G1 X221.384 Y230.703 E6.06464
G1 X221.271 Y231.003 E6.07531
G1 X220.903 Y231.942 E6.10885
G1 X220.678 Y232.486 E6.12843
G1 X220.428 Y233.072 E6.14962
G1 X220.296 Y233.368 E6.1604
G1 X219.835 Y234.364 E6.1969
G1 X219.619 Y234.809 E6.21335
G1 X219.31 Y235.429 E6.2364
G1 X219.158 Y235.722 E6.24737
G1 X218.674 Y236.622 E6.28136
G1 X218.4 Y237.11 E6.29998
G1 X218.068 Y237.687 E6.32212
G1 X217.9 Y237.97 E6.33306
G1 X217.467 Y238.673 E6.36053
G1 X217.107 Y239.238 E6.38281
G1 X216.699 Y239.859 E6.40752
G1 X216.514 Y240.131 E6.41846
G1 X216.004 Y240.857 E6.44797
G1 X215.654 Y241.34 E6.46781
G1 X215.189 Y241.963 E6.49367
G1 X214.979 Y242.235 E6.5051
G1 X214.325 Y243.053 E6.53993
G1 X213.95 Y243.508 E6.55954
G1 X213.554 Y243.975 E6.57991
G1 X213.35 Y244.209 E6.59023
G1 X212.736 Y244.893 E6.6208
G1 X212.283 Y245.382 E6.64297
G1 X211.781 Y245.908 E6.66716
G1 X211.554 Y246.138 E6.6779
G1 X210.829 Y246.852 E6.71175
G1 X210.418 Y247.243 E6.73062
G1 X209.952 Y247.678 E6.75182
G1 X209.683 Y247.921 E6.76388
G1 X208.955 Y248.555 E6.79598
G1 X208.443 Y248.988 E6.81829
G1 X207.972 Y249.375 E6.83856
G1 X207.733 Y249.567 E6.84876
G1 X207.059 Y250.09 E6.87713
G1 X206.509 Y250.503 E6.90001
G1 X205.931 Y250.924 E6.92379
G1 X205.668 Y251.11 E6.93451
G1 X204.932 Y251.613 E6.96416
G1 X204.305 Y252.027 E6.98915
G1 X203.771 Y252.369 E7.01024
G1 X203.488 Y252.544 E7.0213
G1 X202.753 Y252.984 E7.0498
G1 X202.173 Y253.32 E7.07209
G1 X201.554 Y253.667 E7.09569
G1 X201.276 Y253.817 E7.1062
G1 X200.327 Y254.31 E7.14177
G1 X199.765 Y254.59 E7.16265
G1 X199.255 Y254.836 E7.18148
G1 X198.956 Y254.975 E7.19245
G1 X198.106 Y255.354 E7.22341
G1 X197.585 Y255.577 E7.24226
G1 X196.856 Y255.877 E7.26847
G1 X196.547 Y255.999 E7.27952
G1 X195.578 Y256.362 E7.31394
G1 X195.03 Y256.558 E7.3333
G1 X194.418 Y256.767 E7.35481
G1 X194.114 Y256.866 E7.36544
G1 X193.267 Y257.128 E7.39493
G1 X192.712 Y257.291 E7.41417
G1 X191.927 Y257.509 E7.44127
G1 X191.619 Y257.59 E7.45186
G1 X190.651 Y257.826 E7.485
G1 X190.083 Y257.955 E7.50437
G1 X189.406 Y258.099 E7.52739
G1 X189.093 Y258.161 E7.538
G1 X188.092 Y258.343 E7.57184
G1 X187.525 Y258.436 E7.59095
G1 X186.862 Y258.536 E7.61325
G1 X186.547 Y258.579 E7.62383
G1 X185.521 Y258.702 E7.6582
G1 X184.935 Y258.762 E7.67779
G1 X184.305 Y258.819 E7.69883
G1 X183.979 Y258.844 E7.7097
G1 X183.088 Y258.898 E7.73939
G1 X182.395 Y258.929 E7.76246
G1 X181.71 Y258.95 E7.78526
G1 X181.386 Y258.955 E7.79604
G1 X180.376 Y258.955 E7.82963
G1 X179.745 Y258.945 E7.85062
G1 X179.119 Y258.926 E7.87145
G1 X178.808 Y258.912 E7.8818
G1 X177.778 Y258.85 E7.91612
G1 X177.152 Y258.802 E7.93701
G1 X176.551 Y258.748 E7.95708
G1 X176.24 Y258.715 E7.96748
G1 X175.232 Y258.595 E8.00124
G1 X174.727 Y258.527 E8.01819
G1 X174.008 Y258.419 E8.04237
G1 X173.7 Y258.368 E8.05275
G1 X172.623 Y258.173 E8.08916
G1 X172.09 Y258.067 E8.10723
G1 X171.47 Y257.937 E8.1283
G1 X171.111 Y257.855 E8.14055
G1 X170.123 Y257.612 E8.17439
G1 X169.502 Y257.449 E8.19574
G1 X168.941 Y257.294 E8.2151
G1 X168.641 Y257.206 E8.2255
G1 X167.63 Y256.894 E8.26069
G1 X167.111 Y256.724 E8.27886
G1 X166.477 Y256.508 E8.30113
G1 X166.166 Y256.397 E8.31212
G1 X165.187 Y256.029 E8.3469
G1 X164.646 Y255.817 E8.36623
G1 X164.084 Y255.588 E8.38641
G1 X163.765 Y255.452 E8.39795
G1 X162.96 Y255.094 E8.42725
G1 X162.424 Y254.846 E8.44689
G1 X161.709 Y254.504 E8.47325
G1 X161.41 Y254.355 E8.48437
G1 X160.465 Y253.864 E8.51979
G1 X159.998 Y253.61 E8.53747
G1 X159.416 Y253.286 E8.55962
G1 X159.139 Y253.127 E8.57025
G1 X158.41 Y252.693 E8.59846
G1 X157.888 Y252.372 E8.61885
G1 X157.216 Y251.945 E8.64533
G1 X156.941 Y251.764 E8.65628
G1 X156.063 Y251.164 E8.69165
G1 X155.626 Y250.855 E8.70945
G1 X155.09 Y250.467 E8.73146
G1 X154.82 Y250.266 E8.74265
G1 X154.019 Y249.646 E8.77634
G1 X153.509 Y249.237 E8.79808
G1 X153.064 Y248.871 E8.81725
G1 X152.821 Y248.665 E8.82784
G1 X152.014 Y247.96 E8.86348
G1 X151.597 Y247.583 E8.88218
G1 X151.123 Y247.144 E8.90367
G1 X150.885 Y246.917 E8.91461
G1 X150.157 Y246.199 E8.94862
G1 X149.769 Y245.803 E8.96706
G1 X149.276 Y245.287 E8.99079
G1 X149.066 Y245.062 E9.00103
G1 X148.496 Y244.431 E9.02931
G1 X148.093 Y243.971 E9.04965
G1 X147.602 Y243.395 E9.07483
G1 X147.379 Y243.125 E9.08647
G1 X146.727 Y242.306 E9.12129
G1 X146.377 Y241.852 E9.14036
G1 X145.977 Y241.318 E9.16255
G1 X145.793 Y241.064 E9.17298
G1 X145.213 Y240.241 E9.20647
G1 X144.865 Y239.728 E9.22709
G1 X144.514 Y239.196 E9.24828
G1 X144.349 Y238.937 E9.2585
G1 X143.8 Y238.049 E9.29322
G1 X143.488 Y237.525 E9.31351
G1 X143.19 Y237.009 E9.33332
G1 X143.039 Y236.738 E9.34364
G1 X142.518 Y235.771 E9.38018
G1 X142.261 Y235.274 E9.39879
G1 X141.985 Y234.725 E9.41922
G1 X141.833 Y234.41 E9.43086
G1 X141.399 Y233.471 E9.46526
G1 X141.167 Y232.946 E9.48435
G1 X140.906 Y232.335 E9.50645
G1 X140.785 Y232.04 E9.51706
G1 X140.407 Y231.075 E9.55153
G1 X140.198 Y230.513 E9.57147
G1 X139.994 Y229.946 E9.59151
G1 X139.884 Y229.625 E9.6028
G1 X139.563 Y228.634 E9.63744
G1 X139.398 Y228.098 E9.6561
G1 X139.207 Y227.447 E9.67866
G1 X139.118 Y227.126 E9.68974
G1 X138.872 Y226.177 E9.72235
G1 X138.704 Y225.489 E9.7459
G1 X138.047 Y222.955 E9.83297
G1 X137.349 Y220.55 E9.91626
G1 X136.572 Y218.128 E10.00086
G1 X135.745 Y215.779 E10.08369
G1 X134.839 Y213.423 E10.16765
G1 X133.87 Y211.1 E10.25136
G1 X132.821 Y208.774 E10.33623
G1 X131.739 Y206.545 E10.41864
G1 X130.576 Y204.311 E10.50241
G1 X129.349 Y202.109 E10.58625
G1 X128.053 Y199.931 E10.67055
G1 X126.72 Y197.828 E10.75336
G1 X125.3 Y195.723 E10.83781
G1 X123.836 Y193.678 E10.92146
G1 X122.322 Y191.686 E11.00468
G1 X120.756 Y189.742 E11.08771
G1 X118.233 Y186.826 E11.21596
G1 X117.611 Y186.136 E11.24686
G1 X117.387 Y185.88 E11.25817
G1 X116.741 Y185.117 E11.29142
G1 X116.356 Y184.648 E11.3116
G1 X115.963 Y184.156 E11.33255
G1 X115.762 Y183.897 E11.34345
G1 X115.114 Y183.032 E11.3794
G1 X114.777 Y182.566 E11.39853
G1 X114.427 Y182.069 E11.41874
G1 X114.244 Y181.799 E11.42959
G1 X113.676 Y180.938 E11.4639
G1 X113.351 Y180.43 E11.48396
G1 X113.025 Y179.903 E11.50457
G1 X112.856 Y179.619 E11.51556
G1 X112.315 Y178.681 E11.55158
G1 X112.057 Y178.215 E11.56929
G1 X111.75 Y177.648 E11.59074
G1 X111.584 Y177.33 E11.60267
G1 X111.134 Y176.427 E11.63622
G1 X110.867 Y175.871 E11.65674
G1 X110.61 Y175.317 E11.67705
G1 X110.476 Y175.016 E11.68801
G1 X110.084 Y174.096 E11.72127
G1 X109.838 Y173.495 E11.74287
G1 X109.615 Y172.927 E11.76317
G1 X109.501 Y172.623 E11.77396
G1 X109.148 Y171.636 E11.80883
G1 X108.951 Y171.058 E11.82914
G1 X108.765 Y170.485 E11.84918
G1 X108.674 Y170.189 E11.85948
G1 X108.379 Y169.182 E11.89438
G1 X108.206 Y168.549 E11.9162
G1 X108.065 Y168.006 E11.93486
G1 X107.99 Y167.698 E11.9454
G1 X107.75 Y166.646 E11.98129
G1 X107.64 Y166.125 E11.999
G1 X107.511 Y165.475 E12.02104
G1 X107.453 Y165.155 E12.03186
G1 X107.278 Y164.102 E12.06736
G1 X107.192 Y163.517 E12.08703
G1 X107.109 Y162.908 E12.10747
G1 X107.07 Y162.587 E12.11823
G1 X106.962 Y161.556 E12.15271
G1 X106.908 Y160.945 E12.17311
G1 X106.862 Y160.343 E12.19319
G1 X106.841 Y160.006 E12.20442
G1 X106.803 Y159.173 E12.23215
G1 X106.778 Y158.344 E12.25974
G1 X106.769 Y157.773 E12.27873
G1 X106.769 Y157.438 E12.28988
G1 X106.786 Y156.387 E12.32484
G1 X106.805 Y155.766 E12.3455
G1 X106.831 Y155.17 E12.36534
G1 X106.852 Y154.829 E12.37671
G1 X106.927 Y153.842 E12.40963
G1 X106.982 Y153.238 E12.4298
G1 X107.054 Y152.55 E12.45281
G1 X107.091 Y152.238 E12.46326
G1 X107.195 Y151.46 E12.48936
G1 X107.322 Y150.617 E12.51772
G1 X107.412 Y150.07 E12.53616
G1 X107.472 Y149.735 E12.54748
G1 X107.65 Y148.829 E12.57819
G1 X107.791 Y148.164 E12.6008
G1 X107.949 Y147.467 E12.62457
G1 X108.031 Y147.132 E12.63604
